;FLAVOR:Marlin
;TIME:5348
;Filament used: 6.76704m
;Layer height: 0.2
;MINX:39.284
;MINY:55.815
;MINZ:0.2
;MAXX:210.715
;MAXY:154.185
;MAXZ:9
;TARGET_MACHINE.NAME:Prusa i3 Mk3/Mk3s
;Generated with Cura_SteamEngine 5.8.1
M82 ;absolute extrusion mode
G21 ; set units to millimeters
G90 ; use absolute positioning
M82 ; absolute extrusion mode
M104 S200 ; set extruder temp
M140 S60 ; set bed temp
M190 S60 ; wait for bed temp
M109 S200 ; wait for extruder temp
G28 W ; home all without mesh bed level
G80 ; mesh bed leveling
G92 E0.0 ; reset extruder distance position
G1 Y-3.0 F1000.0 ; go outside print area
G1 X60.0 E9.0 F1000.0 ; intro line
G1 X100.0 E21.5 F1000.0 ; intro line
G92 E0.0 ; reset extruder distance position
G92 E0
G92 E0
G1 F2100 E-0.8
;LAYER_COUNT:45
;LAYER:0
M107
G0 F3600 X42.827 Y57.075 Z0.2
;TYPE:SKIRT
G1 F2100 E0
G1 F1800 X44.806 Y56.089 E0.07354
G1 X46.33 Y55.867 E0.12476
G1 X203.537 Y55.815 E5.35349
G1 X205.594 Y56.237 E5.42333
G1 X207.365 Y57.232 E5.49089
G1 X208.363 Y58.005 E5.53288
G1 X209.455 Y59.358 E5.59071
G1 X210.441 Y61.337 E5.66425
G1 X210.663 Y62.861 E5.71547
G1 X210.715 Y134.587 E8.10109
G1 X210.679 Y135.507 E8.13171
G1 X210.442 Y137.557 E8.20035
G1 X210.253 Y138.538 E8.23358
G1 X209.808 Y140.184 E8.29029
G1 X209.235 Y141.808 E8.34757
G1 X208.861 Y142.667 E8.37873
G1 X207.917 Y144.44 E8.44554
G1 X207.226 Y145.527 E8.48838
G1 X206.248 Y146.848 E8.54304
G1 X205.588 Y147.617 E8.57675
G1 X204.236 Y148.963 E8.6402
G1 X203.127 Y149.911 E8.68873
G1 X202.036 Y150.711 E8.73372
G1 X200.597 Y151.607 E8.7901
G1 X199.476 Y152.196 E8.83222
G1 X198.087 Y152.8 E8.8826
G1 X196.404 Y153.384 E8.94185
G1 X195.447 Y153.639 E8.97479
G1 X193.414 Y154.012 E9.04354
G1 X192.096 Y154.145 E9.0876
G1 X191.105 Y154.185 E9.12059
G1 X58.884 Y154.185 E13.51827
G1 X57.962 Y154.149 E13.54896
G1 X55.913 Y153.912 E13.61757
G1 X54.932 Y153.723 E13.6508
G1 X53.286 Y153.278 E13.70751
G1 X51.662 Y152.705 E13.76478
G1 X50.803 Y152.331 E13.79595
G1 X49.069 Y151.407 E13.8613
G1 X47.897 Y150.662 E13.90749
G1 X46.621 Y149.717 E13.9603
G1 X45.852 Y149.057 E13.994
G1 X44.506 Y147.705 E14.05746
G1 X43.558 Y146.596 E14.10598
G1 X42.757 Y145.504 E14.15102
G1 X41.876 Y144.09 E14.20644
G1 X41.274 Y142.946 E14.24943
G1 X40.67 Y141.557 E14.29981
G1 X40.086 Y139.874 E14.35906
G1 X39.831 Y138.917 E14.392
G1 X39.458 Y136.918 E14.45964
G1 X39.357 Y136.014 E14.48989
G1 X39.285 Y134.265 E14.54811
G1 X39.284 Y62.993 E16.91863
G1 X39.706 Y60.936 E16.98847
G1 X40.701 Y59.165 E17.05603
G1 X41.474 Y58.167 E17.09802
G1 X42.827 Y57.075 E17.15585
G0 F3600 X43.044 Y57.414
G1 F1800 X44.926 Y56.476 E17.22579
G1 X46.388 Y56.263 E17.27493
G1 X203.496 Y56.215 E22.50036
G1 X205.453 Y56.617 E22.56681
G1 X207.12 Y57.548 E22.63031
G1 X208.082 Y58.293 E22.67078
G1 X209.116 Y59.575 E22.72556
G1 X210.054 Y61.457 E22.7955
G1 X210.267 Y62.919 E22.84464
G1 X210.315 Y134.571 E25.2278
G1 X210.279 Y135.491 E25.25842
G1 X210.049 Y137.481 E25.32505
G1 X209.86 Y138.462 E25.35828
G1 X209.422 Y140.079 E25.414
G1 X208.868 Y141.648 E25.46934
G1 X208.494 Y142.507 E25.5005
G1 X207.579 Y144.225 E25.56524
G1 X206.888 Y145.312 E25.60808
G1 X205.944 Y146.587 E25.66085
G1 X205.284 Y147.356 E25.69455
G1 X203.976 Y148.659 E25.75596
G1 X202.89 Y149.588 E25.80349
G1 X201.799 Y150.388 E25.84849
G1 X200.411 Y151.253 E25.90289
G1 X199.316 Y151.829 E25.94404
G1 X197.927 Y152.433 E25.99441
G1 X196.301 Y152.997 E26.05166
G1 X195.344 Y153.252 E26.0846
G1 X193.374 Y153.614 E26.15122
G1 X192.08 Y153.745 E26.19447
G1 X191.089 Y153.785 E26.22746
G1 X58.9 Y153.785 E30.62409
G1 X57.978 Y153.749 E30.65478
G1 X55.989 Y153.519 E30.72137
G1 X55.008 Y153.33 E30.7546
G1 X53.391 Y152.892 E30.81032
G1 X51.822 Y152.338 E30.86566
G1 X50.963 Y151.964 E30.89682
G1 X49.283 Y151.069 E30.96013
G1 X48.135 Y150.34 E31.00536
G1 X46.882 Y149.413 E31.0572
G1 X46.113 Y148.753 E31.09091
G1 X44.81 Y147.445 E31.15232
G1 X43.881 Y146.359 E31.19985
G1 X43.08 Y145.267 E31.24489
G1 X42.216 Y143.879 E31.29927
G1 X41.641 Y142.786 E31.34035
G1 X41.037 Y141.397 E31.39073
G1 X40.473 Y139.771 E31.44797
G1 X40.218 Y138.814 E31.48091
G1 X39.856 Y136.874 E31.54655
G1 X39.755 Y135.97 E31.5768
G1 X39.685 Y134.265 E31.63356
G1 X39.684 Y63.034 E34.00271
G1 X40.086 Y61.077 E34.06916
G1 X41.017 Y59.41 E34.13267
G1 X41.762 Y58.448 E34.17313
G1 X43.044 Y57.414 E34.22791
G0 F3600 X43.261 Y57.753
G1 F1800 X45.046 Y56.863 E34.29425
G1 X46.446 Y56.659 E34.34131
G1 X203.454 Y56.615 E39.56342
G1 X205.312 Y56.997 E39.62651
G1 X206.875 Y57.864 E39.68596
G1 X207.801 Y58.581 E39.72491
G1 X208.777 Y59.792 E39.77664
G1 X209.667 Y61.577 E39.84298
G1 X209.871 Y62.977 E39.89003
G1 X209.915 Y134.555 E42.27073
G1 X209.879 Y135.475 E42.30135
G1 X209.656 Y137.405 E42.36597
G1 X209.467 Y138.386 E42.3992
G1 X209.045 Y139.946 E42.45295
G1 X208.501 Y141.488 E42.50733
G1 X208.127 Y142.347 E42.5385
G1 X207.241 Y144.01 E42.60117
G1 X206.55 Y145.097 E42.64401
G1 X205.64 Y146.326 E42.69487
G1 X204.98 Y147.095 E42.72858
G1 X203.694 Y148.375 E42.78892
G1 X202.653 Y149.265 E42.83448
G1 X201.562 Y150.065 E42.87947
G1 X200.2 Y150.913 E42.93284
G1 X199.156 Y151.462 E42.97207
G1 X197.767 Y152.066 E43.02245
G1 X196.198 Y152.61 E43.07768
G1 X195.241 Y152.865 E43.11062
G1 X193.334 Y153.216 E43.17511
G1 X192.064 Y153.345 E43.21757
G1 X191.073 Y153.385 E43.25056
G1 X58.916 Y153.385 E47.64612
G1 X57.994 Y153.349 E47.67681
G1 X56.065 Y153.126 E47.74139
G1 X55.084 Y152.937 E47.77462
G1 X53.524 Y152.515 E47.82837
G1 X51.982 Y151.971 E47.88276
G1 X51.123 Y151.597 E47.91392
G1 X49.497 Y150.731 E47.97519
G1 X48.349 Y150.002 E48.02042
G1 X47.143 Y149.109 E48.07033
G1 X46.374 Y148.449 E48.10404
G1 X45.094 Y147.163 E48.16439
G1 X44.204 Y146.122 E48.20994
G1 X43.403 Y145.03 E48.25498
G1 X42.57 Y143.693 E48.30738
G1 X42.008 Y142.626 E48.34749
G1 X41.404 Y141.237 E48.39786
G1 X40.86 Y139.668 E48.4531
G1 X40.605 Y138.711 E48.48604
G1 X40.254 Y136.83 E48.54968
G1 X40.153 Y135.926 E48.57993
G1 X40.085 Y134.265 E48.63523
G1 X40.084 Y63.076 E51.00298
G1 X40.466 Y61.218 E51.06607
G1 X41.333 Y59.655 E51.12552
G1 X42.05 Y58.729 E51.16447
G1 X43.261 Y57.753 E51.2162
G0 F3600 X43.481 Y58.09
G1 F1800 X45.166 Y57.25 E51.27882
G1 X46.504 Y57.055 E51.3238
G1 X203.412 Y57.015 E56.54258
G1 X205.172 Y57.377 E56.60234
G1 X206.681 Y58.214 E56.65973
G1 X207.517 Y58.866 E56.695
G1 X208.44 Y60.012 E56.74394
G1 X209.28 Y61.697 E56.80656
G1 X209.475 Y63.035 E56.85153
G1 X209.515 Y134.539 E59.22976
G1 X209.479 Y135.459 E59.26039
G1 X209.263 Y137.329 E59.323
G1 X209.074 Y138.31 E59.35622
G1 X208.668 Y139.813 E59.40801
G1 X208.134 Y141.328 E59.46143
G1 X207.76 Y142.187 E59.49259
G1 X206.903 Y143.795 E59.5532
G1 X206.212 Y144.882 E59.59604
G1 X205.336 Y146.065 E59.645
G1 X204.676 Y146.834 E59.6787
G1 X203.434 Y148.071 E59.73701
G1 X202.416 Y148.942 E59.78157
G1 X201.325 Y149.742 E59.82656
G1 X200.014 Y150.559 E59.87794
G1 X198.996 Y151.095 E59.91621
G1 X197.607 Y151.699 E59.96658
G1 X196.095 Y152.223 E60.01981
G1 X195.138 Y152.478 E60.05275
G1 X193.293 Y152.818 E60.11515
G1 X192.048 Y152.945 E60.15677
G1 X191.057 Y152.985 E60.18976
G1 X58.932 Y152.985 E64.58425
G1 X58.01 Y152.949 E64.61494
G1 X56.141 Y152.733 E64.67752
G1 X55.16 Y152.544 E64.71075
G1 X53.657 Y152.138 E64.76253
G1 X52.142 Y151.604 E64.81596
G1 X51.283 Y151.23 E64.84712
G1 X49.711 Y150.393 E64.90635
G1 X48.587 Y149.68 E64.95062
G1 X47.404 Y148.805 E64.99956
G1 X46.635 Y148.145 E65.03327
G1 X45.398 Y146.903 E65.09157
G1 X44.527 Y145.885 E65.13613
G1 X43.726 Y144.793 E65.18118
G1 X42.91 Y143.482 E65.23254
G1 X42.375 Y142.466 E65.27073
G1 X41.771 Y141.077 E65.32111
G1 X41.247 Y139.565 E65.37433
G1 X40.992 Y138.608 E65.40727
G1 X40.652 Y136.786 E65.46892
G1 X40.551 Y135.882 E65.49917
G1 X40.485 Y134.265 E65.553
G1 X40.484 Y63.118 E67.91936
G1 X40.846 Y61.358 E67.97912
G1 X41.683 Y59.849 E68.03651
G1 X42.335 Y59.013 E68.07177
G1 X43.481 Y58.09 E68.12072
G0 F3600 X43.701 Y58.427
G1 F1800 X45.286 Y57.637 E68.17962
G1 X46.562 Y57.451 E68.22251
G1 X203.37 Y57.415 E73.43796
G1 X205.032 Y57.757 E73.4944
G1 X206.487 Y58.564 E73.54974
G1 X207.232 Y59.15 E73.58126
G1 X208.103 Y60.232 E73.62746
G1 X208.893 Y61.817 E73.68636
G1 X209.079 Y63.093 E73.72925
G1 X209.115 Y134.523 E76.10502
G1 X209.079 Y135.443 E76.13565
G1 X208.87 Y137.253 E76.19625
G1 X208.681 Y138.234 E76.22948
G1 X208.282 Y139.708 E76.28027
G1 X207.767 Y141.168 E76.33176
G1 X207.393 Y142.027 E76.36292
G1 X206.565 Y143.581 E76.42148
G1 X205.89 Y144.644 E76.46337
G1 X205.032 Y145.804 E76.51135
G1 X204.372 Y146.573 E76.54506
G1 X203.152 Y147.787 E76.6023
G1 X202.179 Y148.619 E76.64488
G1 X201.088 Y149.419 E76.68988
G1 X199.803 Y150.219 E76.74023
G1 X198.836 Y150.728 E76.77657
G1 X197.447 Y151.332 E76.82695
G1 X195.992 Y151.836 E76.87816
G1 X195.035 Y152.091 E76.9111
G1 X193.252 Y152.42 E76.97141
G1 X192.032 Y152.545 E77.0122
G1 X191.041 Y152.585 E77.04519
G1 X58.948 Y152.585 E81.43862
G1 X58.026 Y152.549 E81.46931
G1 X56.217 Y152.34 E81.52987
G1 X55.236 Y152.151 E81.5631
G1 X53.762 Y151.752 E81.61389
G1 X52.302 Y151.237 E81.66538
G1 X51.443 Y150.863 E81.69655
G1 X49.925 Y150.055 E81.75374
G1 X48.801 Y149.342 E81.79801
G1 X47.665 Y148.501 E81.84502
G1 X46.896 Y147.841 E81.87873
G1 X45.682 Y146.621 E81.93597
G1 X44.85 Y145.648 E81.97855
G1 X44.049 Y144.556 E82.0236
G1 X43.25 Y143.271 E82.07392
G1 X42.742 Y142.306 E82.1102
G1 X42.138 Y140.917 E82.16057
G1 X41.634 Y139.462 E82.21179
G1 X41.379 Y138.505 E82.24473
G1 X41.05 Y136.742 E82.30438
G1 X40.949 Y135.838 E82.33463
G1 X40.885 Y134.265 E82.38699
G1 X40.884 Y63.16 E84.75196
G1 X41.226 Y61.498 E84.80839
G1 X42.033 Y60.043 E84.86373
G1 X42.619 Y59.298 E84.89526
G1 X43.701 Y58.427 E84.94146
G0 F3600 X43.919 Y58.766
G1 F1800 X45.407 Y58.024 E84.99676
G1 X46.62 Y57.847 E85.03753
G1 X203.328 Y57.815 E90.24966
G1 X204.892 Y58.137 E90.30277
G1 X206.293 Y58.914 E90.35605
G1 X206.947 Y59.435 E90.38386
G1 X207.764 Y60.45 E90.4272
G1 X208.506 Y61.938 E90.4825
G1 X208.683 Y63.151 E90.52328
G1 X208.715 Y134.507 E92.89659
G1 X208.679 Y135.427 E92.92721
G1 X208.477 Y137.177 E92.9858
G1 X208.288 Y138.158 E93.01903
G1 X207.905 Y139.575 E93.06785
G1 X207.4 Y141.008 E93.11838
G1 X207.026 Y141.867 E93.14955
G1 X206.227 Y143.367 E93.20607
G1 X205.552 Y144.43 E93.24795
G1 X204.728 Y145.543 E93.29401
G1 X204.068 Y146.312 E93.32772
G1 X202.892 Y147.483 E93.38292
G1 X201.942 Y148.296 E93.4245
G1 X200.851 Y149.096 E93.4695
G1 X199.592 Y149.879 E93.51881
G1 X198.676 Y150.361 E93.55324
G1 X197.287 Y150.965 E93.60362
G1 X195.889 Y151.449 E93.65282
G1 X194.932 Y151.704 E93.68576
G1 X193.211 Y152.022 E93.74397
G1 X192.016 Y152.145 E93.78393
G1 X191.025 Y152.185 E93.81692
G1 X58.964 Y152.185 E98.20928
G1 X58.042 Y152.149 E98.23997
G1 X56.293 Y151.947 E98.29853
G1 X55.312 Y151.758 E98.33176
G1 X53.895 Y151.375 E98.38058
G1 X52.462 Y150.87 E98.43111
G1 X51.603 Y150.496 E98.46228
G1 X50.139 Y149.717 E98.51743
G1 X49.015 Y149.004 E98.5617
G1 X47.926 Y148.197 E98.60679
G1 X47.157 Y147.537 E98.64049
G1 X45.986 Y146.361 E98.69569
G1 X45.173 Y145.411 E98.73728
G1 X44.372 Y144.319 E98.78232
G1 X43.59 Y143.06 E98.83162
G1 X43.109 Y142.146 E98.86597
G1 X42.505 Y140.757 E98.91634
G1 X42.021 Y139.359 E98.96555
G1 X41.766 Y138.402 E98.99849
G1 X41.448 Y136.698 E99.05614
G1 X41.347 Y135.794 E99.0864
G1 X41.285 Y134.265 E99.1373
G1 X41.284 Y63.202 E101.50086
G1 X41.606 Y61.638 E101.55397
G1 X42.383 Y60.237 E101.60725
G1 X42.904 Y59.583 E101.63507
G1 X43.919 Y58.766 E101.6784
G0 F3600 X44.139 Y59.103
G1 F1800 X45.527 Y58.411 E101.72999
G1 X46.678 Y58.243 E101.76867
G1 X203.286 Y58.215 E106.97748
G1 X204.753 Y58.517 E107.02729
G1 X206.044 Y59.227 E107.0763
G1 X206.661 Y59.719 E107.10254
G1 X207.427 Y60.67 E107.14316
G1 X208.119 Y62.058 E107.19474
G1 X208.287 Y63.209 E107.23343
G1 X208.315 Y134.491 E109.60428
G1 X208.279 Y135.411 E109.6349
G1 X208.084 Y137.101 E109.69149
G1 X207.895 Y138.082 E109.72471
G1 X207.519 Y139.47 E109.77254
G1 X207.033 Y140.848 E109.82114
G1 X206.659 Y141.707 E109.8523
G1 X205.889 Y143.153 E109.90679
G1 X205.214 Y144.216 E109.94867
G1 X204.424 Y145.282 E109.9928
G1 X203.764 Y146.051 E110.02651
G1 X202.61 Y147.199 E110.08065
G1 X201.705 Y147.973 E110.12026
G1 X200.614 Y148.773 E110.16525
G1 X199.381 Y149.539 E110.21353
G1 X198.516 Y149.994 E110.24604
G1 X197.127 Y150.598 E110.29642
G1 X195.786 Y151.062 E110.34361
G1 X194.829 Y151.317 E110.37655
G1 X193.17 Y151.624 E110.43267
G1 X192 Y151.745 E110.47179
G1 X191.009 Y151.785 E110.50478
G1 X58.98 Y151.785 E114.89608
G1 X58.058 Y151.749 E114.92677
G1 X56.369 Y151.554 E114.98332
G1 X55.388 Y151.365 E115.01655
G1 X54 Y150.989 E115.06438
G1 X52.622 Y150.503 E115.11298
G1 X51.763 Y150.129 E115.14414
G1 X50.353 Y149.379 E115.19726
G1 X49.253 Y148.682 E115.24057
G1 X48.187 Y147.893 E115.28468
G1 X47.418 Y147.233 E115.31838
G1 X46.27 Y146.079 E115.37252
G1 X45.496 Y145.174 E115.41213
G1 X44.695 Y144.082 E115.45717
G1 X43.93 Y142.849 E115.50544
G1 X43.476 Y141.986 E115.53787
G1 X42.872 Y140.597 E115.58825
G1 X42.408 Y139.256 E115.63544
G1 X42.153 Y138.299 E115.66838
G1 X41.846 Y136.654 E115.72404
G1 X41.745 Y135.75 E115.7543
G1 X41.685 Y134.265 E115.80373
G1 X41.684 Y63.244 E118.1659
G1 X41.986 Y61.777 E118.21571
G1 X42.696 Y60.486 E118.26472
G1 X43.188 Y59.869 E118.29096
G1 X44.139 Y59.103 E118.33158
G0 F3600 X44.355 Y59.442
G1 F1800 X45.647 Y58.798 E118.37959
G1 X46.736 Y58.639 E118.4162
G1 X203.244 Y58.615 E123.62167
G1 X204.615 Y58.897 E123.66823
G1 X205.795 Y59.54 E123.71292
G1 X206.378 Y60.005 E123.73773
G1 X207.088 Y60.886 E123.77536
G1 X207.732 Y62.178 E123.82337
G1 X207.891 Y63.267 E123.85998
G1 X207.915 Y134.475 E126.22837
G1 X207.879 Y135.395 E126.25899
G1 X207.691 Y137.025 E126.31356
G1 X207.502 Y138.006 E126.34679
G1 X207.142 Y139.337 E126.39265
G1 X206.666 Y140.688 E126.44029
G1 X206.292 Y141.547 E126.47145
G1 X205.551 Y142.939 E126.5239
G1 X204.892 Y143.978 E126.56482
G1 X204.12 Y145.021 E126.60798
G1 X203.46 Y145.79 E126.64169
G1 X202.35 Y146.895 E126.69378
G1 X201.468 Y147.65 E126.7324
G1 X200.377 Y148.45 E126.7774
G1 X199.194 Y149.185 E126.82372
G1 X198.356 Y149.627 E126.85523
G1 X196.967 Y150.231 E126.90561
G1 X195.683 Y150.675 E126.95079
G1 X194.726 Y150.93 E126.98373
G1 X193.129 Y151.226 E127.03776
G1 X191.984 Y151.345 E127.07604
G1 X190.993 Y151.385 E127.10903
G1 X58.996 Y151.385 E131.49927
G1 X58.074 Y151.349 E131.52996
G1 X56.445 Y151.161 E131.5845
G1 X55.464 Y150.972 E131.61773
G1 X54.133 Y150.612 E131.66359
G1 X52.782 Y150.136 E131.71123
G1 X51.923 Y149.762 E131.74239
G1 X50.567 Y149.041 E131.79347
G1 X49.467 Y148.344 E131.83678
G1 X48.448 Y147.589 E131.87896
G1 X47.679 Y146.929 E131.91267
G1 X46.574 Y145.819 E131.96476
G1 X45.819 Y144.937 E132.00338
G1 X45.018 Y143.845 E132.04842
G1 X44.284 Y142.662 E132.09473
G1 X43.843 Y141.826 E132.12616
G1 X43.239 Y140.437 E132.17654
G1 X42.795 Y139.153 E132.22173
G1 X42.54 Y138.196 E132.25467
G1 X42.244 Y136.61 E132.30833
G1 X42.143 Y135.706 E132.33858
G1 X42.085 Y134.265 E132.38655
G1 X42.084 Y63.286 E134.74732
G1 X42.366 Y61.915 E134.79388
G1 X43.009 Y60.735 E134.83857
G1 X43.474 Y60.152 E134.86337
G1 X44.355 Y59.442 E134.90101
G0 F3600 X44.575 Y59.779
G1 F1800 X45.767 Y59.185 E134.9453
G1 X46.794 Y59.035 E134.97982
G1 X203.202 Y59.015 E140.18198
G1 X204.477 Y59.277 E140.22527
G1 X205.546 Y59.853 E140.26566
G1 X206.093 Y60.289 E140.28892
G1 X206.751 Y61.106 E140.32381
G1 X207.345 Y62.298 E140.36811
G1 X207.495 Y63.325 E140.40263
G1 X207.515 Y134.459 E142.76856
G1 X207.479 Y135.379 E142.79918
G1 X207.298 Y136.949 E142.85174
G1 X207.109 Y137.93 E142.88497
G1 X206.765 Y139.204 E142.92886
G1 X206.299 Y140.528 E142.97555
G1 X205.925 Y141.387 E143.00671
G1 X205.213 Y142.725 E143.05712
G1 X204.554 Y143.764 E143.09804
G1 X203.816 Y144.76 E143.13927
G1 X203.156 Y145.529 E143.17298
G1 X202.09 Y146.591 E143.22302
G1 X201.231 Y147.327 E143.26065
G1 X200.14 Y148.127 E143.30564
G1 X199.007 Y148.831 E143.35001
G1 X198.196 Y149.26 E143.38052
G1 X196.807 Y149.864 E143.4309
G1 X195.58 Y150.288 E143.47408
G1 X194.623 Y150.543 E143.50702
G1 X193.087 Y150.828 E143.55898
