;FLAVOR:Marlin
;TIME:6612
;Filament used: 5.87052m
;Layer height: 0.15
;MINX:57.985
;MINY:84.135
;MINZ:0.2
;MAXX:185.223
;MAXY:112.827
;MAXZ:32.15
;TARGET_MACHINE.NAME:Prusa i3 Mk3/Mk3s
;Generated with Cura_SteamEngine 5.8.1
M82 ;absolute extrusion mode
G21 ; set units to millimeters
G90 ; use absolute positioning
M82 ; absolute extrusion mode
M104 S200 ; set extruder temp
M140 S60 ; set bed temp
M190 S60 ; wait for bed temp
M109 S200 ; wait for extruder temp
G28 W ; home all without mesh bed level
G80 ; mesh bed leveling
G92 E0.0 ; reset extruder distance position
G1 Y-3.0 F1000.0 ; go outside print area
G1 X60.0 E9.0 F1000.0 ; intro line
G1 X100.0 E21.5 F1000.0 ; intro line
G92 E0.0 ; reset extruder distance position
G92 E0
G92 E0
G1 F2100 E-0.8
;LAYER_COUNT:214
;LAYER:0
M107
G0 F3600 X62.783 Y85.842 Z0.2
;TYPE:SKIRT
G1 F2100 E0
G1 F1800 X63.87 Y85.239 E0.04134
G1 X64.794 Y84.831 E0.07494
G1 X66.093 Y84.431 E0.12015
G1 X66.636 Y84.32 E0.13858
G1 X67.84 Y84.155 E0.179
G1 X68.809 Y84.137 E0.21123
G1 X127.551 Y84.135 E2.165
G1 X128.241 Y84.145 E2.18795
G1 X128.838 Y84.205 E2.20791
G1 X129.388 Y84.351 E2.22684
G1 X129.852 Y84.553 E2.24367
G1 X130.384 Y84.893 E2.26467
G1 X130.805 Y85.274 E2.28355
G1 X131.162 Y85.717 E2.30248
G1 X131.445 Y86.211 E2.32141
G1 X131.645 Y86.742 E2.34028
G1 X131.765 Y87.294 E2.35907
G1 X131.848 Y88.757 E2.40781
G1 X131.905 Y90.332 E2.46023
G1 X131.918 Y92.092 E2.51877
G1 X131.912 Y93.846 E2.57711
G1 X131.901 Y94.536 E2.60006
G1 X131.889 Y94.674 E2.60467
G1 X131.804 Y100.899 E2.81173
G1 X131.782 Y101.641 E2.83642
G1 X131.716 Y102.206 E2.85534
G1 X131.562 Y102.754 E2.87427
G1 X131.354 Y103.215 E2.89109
G1 X131.007 Y103.741 E2.91205
G1 X130.62 Y104.158 E2.93097
G1 X130.172 Y104.508 E2.94988
G1 X129.675 Y104.784 E2.96879
G1 X129.14 Y104.978 E2.98772
G1 X128.474 Y105.105 E3.01027
G1 X127.461 Y105.119 E3.04396
G1 X69.2 Y105.131 E4.98173
G1 X68.239 Y105.114 E5.0137
G1 X67.588 Y105.067 E5.03541
G1 X66.601 Y104.937 E5.06852
G1 X65.614 Y104.704 E5.10225
G1 X65.108 Y104.537 E5.11997
G1 X64.404 Y104.278 E5.14492
G1 X63.786 Y103.995 E5.16753
G1 X62.859 Y103.476 E5.20287
G1 X62.42 Y103.178 E5.22051
G1 X61.468 Y102.441 E5.26056
G1 X60.493 Y101.431 E5.30725
G1 X60.166 Y101.022 E5.32467
G1 X59.77 Y100.463 E5.34745
G1 X59.403 Y99.896 E5.36991
G1 X59.009 Y99.126 E5.39868
G1 X58.562 Y98.114 E5.43548
G1 X58.247 Y96.997 E5.47408
G1 X58.047 Y95.839 E5.51317
G1 X57.985 Y94.936 E5.54327
G1 X58.009 Y94.096 E5.57122
G1 X58.058 Y93.338 E5.59648
G1 X58.233 Y92.357 E5.62963
G1 X58.471 Y91.544 E5.6578
G1 X58.638 Y91.032 E5.67571
G1 X58.842 Y90.51 E5.69436
G1 X59.365 Y89.457 E5.73346
G1 X60.016 Y88.462 E5.77301
G1 X60.384 Y88.002 E5.7926
G1 X60.862 Y87.475 E5.81627
G1 X61.259 Y87.073 E5.83506
G1 X61.828 Y86.572 E5.86027
G1 X62.783 Y85.842 E5.90025
G0 F3600 X63.026 Y86.16
G1 F1800 X64.033 Y85.604 E5.93851
G1 X64.912 Y85.213 E5.97051
G1 X66.173 Y84.823 E6.01441
G1 X66.716 Y84.712 E6.03284
G1 X67.847 Y84.555 E6.07082
G1 X68.809 Y84.537 E6.10282
G1 X127.545 Y84.535 E8.05639
G1 X128.235 Y84.545 E8.07934
G1 X128.739 Y84.593 E8.09618
G1 X129.228 Y84.718 E8.11297
G1 X129.692 Y84.92 E8.1298
G1 X130.118 Y85.192 E8.14661
G1 X130.496 Y85.528 E8.16343
G1 X130.817 Y85.919 E8.18026
G1 X131.072 Y86.355 E8.19706
G1 X131.254 Y86.827 E8.21388
G1 X131.374 Y87.379 E8.23267
G1 X131.448 Y88.772 E8.27907
G1 X131.505 Y90.335 E8.33109
G1 X131.518 Y92.091 E8.3895
G1 X131.512 Y93.84 E8.44767
G1 X131.501 Y94.53 E8.47062
G1 X131.489 Y94.653 E8.47473
G1 X131.404 Y100.888 E8.68213
G1 X131.384 Y101.598 E8.70575
G1 X131.33 Y102.101 E8.72258
G1 X131.197 Y102.589 E8.7394
G1 X130.989 Y103.05 E8.75622
G1 X130.711 Y103.472 E8.77303
G1 X130.371 Y103.845 E8.78982
G1 X129.975 Y104.16 E8.80665
G1 X129.535 Y104.409 E8.82346
G1 X129.061 Y104.586 E8.84029
G1 X128.468 Y104.705 E8.86041
G1 X127.461 Y104.719 E8.8939
G1 X69.207 Y104.731 E10.83144
G1 X68.268 Y104.715 E10.86267
G1 X67.64 Y104.67 E10.88361
G1 X66.653 Y104.54 E10.91673
G1 X65.739 Y104.324 E10.94796
G1 X65.246 Y104.162 E10.96522
G1 X64.571 Y103.914 E10.98914
G1 X63.953 Y103.631 E11.01175
G1 X63.084 Y103.145 E11.04486
G1 X62.645 Y102.847 E11.06251
G1 X61.713 Y102.125 E11.10172
G1 X60.805 Y101.181 E11.14529
G1 X60.492 Y100.791 E11.16192
G1 X60.106 Y100.246 E11.18413
G1 X59.739 Y99.679 E11.2066
G1 X59.375 Y98.964 E11.23328
G1 X58.928 Y97.952 E11.27008
G1 X58.641 Y96.928 E11.30545
G1 X58.446 Y95.811 E11.34316
G1 X58.385 Y94.947 E11.37197
G1 X58.408 Y94.121 E11.39945
G1 X58.452 Y93.407 E11.42325
G1 X58.617 Y92.469 E11.45492
G1 X58.851 Y91.668 E11.48268
G1 X59.011 Y91.177 E11.49986
G1 X59.201 Y90.687 E11.51734
G1 X59.7 Y89.676 E11.55483
G1 X60.351 Y88.681 E11.59438
G1 X60.68 Y88.271 E11.61187
G1 X61.147 Y87.756 E11.63499
G1 X61.544 Y87.354 E11.65378
G1 X62.071 Y86.89 E11.67713
G1 X63.026 Y86.16 E11.71711
G1 F2100 E10.91711
;MESH:iPhone 12 CLICKER.stl
G0 F3600 X64.965 Y87.979
G0 X65.516 Y88.912
G0 X75.82 Y97.925
;TYPE:WALL-INNER
G1 F2100 E11.71711
G1 F1800 X75.867 Y97.664 E11.72594
G1 X75.845 Y97.217 E11.74082
G1 X75.889 Y97.008 E11.74792
G1 X75.855 Y96.644 E11.76008
G1 X75.895 Y94.126 E11.84384
G1 X75.819 Y93.823 E11.85423
G1 X75.818 Y93.416 E11.86777
G1 X75.912 Y92.958 E11.88332
G1 X75.832 Y92.462 E11.90003
G1 X75.849 Y92.037 E11.91418
G1 X75.922 Y91.79 E11.92274
G1 X75.928 Y91.356 E11.93718
G1 X75.847 Y91.098 E11.94617
G1 X75.838 Y90.597 E11.96284
G1 X75.878 Y90.37 E11.97051
G1 X75.84 Y90.205 E11.97614
G1 X75.879 Y89.6 E11.9963
G1 X75.877 Y89.141 E12.01157
G1 X68.403 Y89.14 E12.26016
G1 X67.774 Y89.2 E12.28117
G1 X67.236 Y89.302 E12.29938
G1 X66.586 Y89.497 E12.32196
G1 X65.969 Y89.783 E12.34457
G1 X65.503 Y90.056 E12.36254
G1 X64.847 Y90.526 E12.38938
G1 X64.265 Y91.15 E12.41776
G1 X63.913 Y91.622 E12.43734
G1 X63.635 Y92.078 E12.4551
G1 X63.349 Y92.684 E12.47739
G1 X63.098 Y93.495 E12.50563
G1 X62.977 Y94.438 E12.53725
G1 X63.008 Y95.159 E12.56125
G1 X63.098 Y95.747 E12.58104
G1 X63.26 Y96.392 E12.60316
G1 X63.507 Y96.97 E12.62406
G1 X63.788 Y97.491 E12.64375
G1 X64.167 Y98.04 E12.66594
G1 X64.727 Y98.641 E12.69326
G1 X65.352 Y99.14 E12.71986
G1 X65.93 Y99.476 E12.7421
G1 X66.479 Y99.729 E12.7622
G1 X67.208 Y99.975 E12.78779
G1 X68.02 Y100.1 E12.81512
G1 X68.616 Y100.128 E12.83496
G1 X75.836 Y100.128 E13.0751
G1 X75.824 Y99.618 E13.09207
G1 X75.831 Y98.941 E13.11459
G1 X75.902 Y98.613 E13.12575
G1 X75.833 Y98.373 E13.13406
G1 X75.82 Y97.925 E13.14896
G0 F3600 X76.216 Y97.977
G1 F1800 X76.274 Y97.662 E13.15962
G1 X76.237 Y97.438 E13.16717
G1 X76.294 Y97.042 E13.18047
G1 X76.254 Y96.616 E13.1947
G1 X76.292 Y94.053 E13.27996
G1 X76.195 Y93.565 E13.29651
G1 X76.318 Y92.967 E13.31681
G1 X76.217 Y92.334 E13.33813
G1 X76.325 Y91.856 E13.35443
G1 X76.33 Y91.283 E13.37349
G1 X76.239 Y91.02 E13.38275
G1 X76.233 Y90.662 E13.39466
G1 X76.288 Y90.35 E13.40519
G1 X76.235 Y90.144 E13.41227
G1 X76.3 Y89.602 E13.43042
G1 X76.258 Y88.741 E13.4591
G1 X68.384 Y88.74 E13.72099
G1 X67.718 Y88.803 E13.74324
G1 X67.141 Y88.913 E13.76277
G1 X66.444 Y89.122 E13.78698
G1 X65.784 Y89.428 E13.81117
G1 X65.285 Y89.72 E13.8304
G1 X64.765 Y90.092 E13.85167
G1 X64.368 Y90.453 E13.86951
G1 X63.958 Y90.894 E13.88954
G1 X63.582 Y91.398 E13.91045
G1 X63.282 Y91.888 E13.92956
G1 X62.975 Y92.539 E13.9535
G1 X62.706 Y93.41 E13.98382
G1 X62.575 Y94.424 E14.01783
G1 X62.609 Y95.198 E14.0436
G1 X62.706 Y95.826 E14.06473
G1 X62.879 Y96.52 E14.08852
G1 X63.146 Y97.144 E14.1111
G1 X63.446 Y97.7 E14.13211
G1 X63.854 Y98.292 E14.15602
G1 X64.454 Y98.936 E14.1853
G1 X65.126 Y99.471 E14.21387
G1 X65.746 Y99.831 E14.23771
G1 X66.331 Y100.101 E14.25914
G1 X67.114 Y100.365 E14.28662
G1 X67.98 Y100.499 E14.31577
G1 X68.607 Y100.528 E14.33665
G1 X76.255 Y100.528 E14.59102
G1 X76.224 Y99.649 E14.62027
G1 X76.25 Y99.552 E14.62361
G1 X76.223 Y99.019 E14.64136
G1 X76.3 Y98.785 E14.64956
G1 X76.302 Y98.537 E14.65781
G1 X76.226 Y98.298 E14.66615
G1 X76.216 Y97.977 E14.67683
G0 F3600 X76.328 Y99.609
G0 X76.619 Y99.713
G1 F1800 X76.66 Y99.57 E14.68178
G1 X76.615 Y99.098 E14.69755
G1 X76.7 Y98.874 E14.70552
G1 X76.703 Y98.46 E14.71929
G1 X76.618 Y98.222 E14.72769
G1 X76.613 Y98.029 E14.73411
G1 X76.683 Y97.652 E14.74687
G1 X76.636 Y97.417 E14.75484
G1 X76.699 Y97.083 E14.76614
G1 X76.653 Y96.587 E14.78271
G1 X76.688 Y94.26 E14.86012
G1 X76.702 Y94.029 E14.86781
G1 X76.61 Y93.705 E14.87901
G1 X76.611 Y93.518 E14.88523
G1 X76.725 Y92.977 E14.90362
G1 X76.627 Y92.372 E14.92401
G1 X76.634 Y92.189 E14.9301
G1 X76.727 Y91.923 E14.93947
G1 X76.732 Y91.201 E14.96349
G1 X76.631 Y90.942 E14.97273
G1 X76.627 Y90.727 E14.97988
G1 X76.699 Y90.322 E14.99357
G1 X76.631 Y90.084 E15.0018
G1 X76.647 Y89.824 E15.01046
G1 X76.703 Y89.659 E15.01626
G1 X76.639 Y88.341 E15.06015
G1 X68.365 Y88.34 E15.33534
G1 X67.661 Y88.407 E15.35886
G1 X67.047 Y88.524 E15.37965
G1 X66.302 Y88.747 E15.40552
G1 X65.599 Y89.073 E15.43129
G1 X65.067 Y89.384 E15.45179
G1 X64.514 Y89.78 E15.47441
G1 X64.087 Y90.168 E15.4936
G1 X63.65 Y90.637 E15.51492
G1 X63.25 Y91.173 E15.53716
G1 X62.929 Y91.698 E15.55763
G1 X62.601 Y92.394 E15.58322
G1 X62.313 Y93.324 E15.6156
G1 X62.175 Y94.404 E15.65181
G1 X62.21 Y95.237 E15.67955
G1 X62.313 Y95.905 E15.70203
G1 X62.499 Y96.648 E15.7275
G1 X62.785 Y97.318 E15.75173
G1 X63.105 Y97.91 E15.77411
G1 X63.542 Y98.543 E15.7997
G1 X64.181 Y99.23 E15.8309
G1 X64.9 Y99.803 E15.86148
G1 X65.561 Y100.186 E15.88689
G1 X66.183 Y100.473 E15.90967
G1 X67.01 Y100.753 E15.93871
G1 X67.94 Y100.898 E15.97002
G1 X68.598 Y100.928 E15.99193
G1 X76.635 Y100.928 E16.25924
G1 X76.678 Y100.409 E16.27656
G1 X76.626 Y100.109 E16.28669
G1 X76.619 Y99.713 E16.29986
G0 F3600 X77.013 Y99.78
;TYPE:WALL-OUTER
G1 F1800 X77.073 Y99.603 E16.30608
G1 X77.007 Y99.176 E16.32045
G1 X77.1 Y98.963 E16.32818
G1 X77.103 Y98.383 E16.34747
G1 X77.013 Y98.157 E16.35556
G1 X77.091 Y97.642 E16.37288
G1 X77.037 Y97.357 E16.38253
G1 X77.105 Y97.123 E16.39064
G1 X77.052 Y96.559 E16.40948
G1 X77.088 Y94.284 E16.48515
G1 X77.106 Y93.981 E16.49525
G1 X76.997 Y93.626 E16.5076
G1 X77.132 Y92.987 E16.52932
G1 X77.018 Y92.285 E16.55298
G1 X77.13 Y91.99 E16.56347
G1 X77.12 Y91.71 E16.57279
G1 X77.134 Y91.118 E16.59249
G1 X77.013 Y90.841 E16.60254
G1 X77.11 Y90.294 E16.62102
G1 X77.026 Y90.023 E16.63045
G1 X77.106 Y89.715 E16.64104
G1 X77.021 Y87.941 E16.70011
G1 X68.346 Y87.94 E16.98864
G1 X67.605 Y88.011 E17.0134
G1 X66.952 Y88.135 E17.03551
G1 X66.16 Y88.372 E17.063
G1 X65.413 Y88.718 E17.09038
G1 X64.849 Y89.048 E17.11212
G1 X64.262 Y89.468 E17.13612
G1 X63.805 Y89.883 E17.15666
G1 X63.342 Y90.381 E17.17927
G1 X62.918 Y90.949 E17.20285
G1 X62.577 Y91.508 E17.22463
G1 X62.227 Y92.249 E17.25188
G1 X61.921 Y93.239 E17.28635
G1 X61.808 Y94.118 E17.31582
G1 X61.785 Y94.645 E17.33337
G1 X61.812 Y95.276 E17.35437
G1 X61.921 Y95.984 E17.3782
G1 X62.119 Y96.776 E17.40535
G1 X62.425 Y97.492 E17.43125
G1 X62.763 Y98.119 E17.45494
G1 X63.229 Y98.794 E17.48222
G1 X63.909 Y99.524 E17.51541
G1 X64.674 Y100.134 E17.54795
G1 X65.377 Y100.542 E17.57498
G1 X66.035 Y100.845 E17.59908
G1 X66.703 Y101.071 E17.62253
G1 X67.222 Y101.191 E17.64025
G1 X67.9 Y101.296 E17.66307
G1 X68.589 Y101.328 E17.68601
G1 X77.019 Y101.328 E17.96639
G1 X77.051 Y100.591 E17.99093
G1 X77.095 Y100.356 E17.99888
G1 X77.024 Y100.143 E18.00635
G1 X77.062 Y99.996 E18.0114
G1 X77.013 Y99.78 E18.01876
G0 F3600 X77.073 Y99.603
G0 X77.072 Y99.591
G0 X76.354 Y99.547
G0 X75.443 Y97.867
;TYPE:SKIN
G1 F1800 X75.459 Y98.445 E18.038
G1 X75.516 Y98.645 E18.04491
G1 X75.455 Y98.86 E18.05235
G1 X75.435 Y99.748 E18.08189
G1 X68.625 Y99.748 E18.30839
G1 X68.053 Y99.72 E18.32744
G1 X67.3 Y99.601 E18.35279
G1 X66.618 Y99.373 E18.37671
G1 X66.109 Y99.138 E18.39536
G1 X65.562 Y98.822 E18.41637
G1 X64.989 Y98.364 E18.44077
G1 X64.461 Y97.798 E18.46651
G1 X64.112 Y97.291 E18.48698
G1 X63.849 Y96.801 E18.50548
G1 X63.622 Y96.274 E18.52456
G1 X63.473 Y95.703 E18.54419
G1 X63.384 Y95.132 E18.56341
G1 X63.384 Y94.253 E18.59265
G1 X63.473 Y93.567 E18.61566
G1 X63.699 Y92.825 E18.64145
G1 X63.973 Y92.251 E18.66261
G1 X64.222 Y91.837 E18.67868
G1 X64.554 Y91.397 E18.69701
G1 X65.097 Y90.815 E18.72348
G1 X65.706 Y90.376 E18.74845
G1 X66.149 Y90.118 E18.7655
G1 X66.724 Y89.852 E18.78658
G1 X67.328 Y89.671 E18.80755
G1 X67.821 Y89.575 E18.82425
G1 X68.421 Y89.52 E18.84429
G1 X75.506 Y89.52 E19.07994
G1 X75.462 Y90.267 E19.10483
G1 X75.488 Y90.38 E19.10869
G1 X75.462 Y90.535 E19.11391
G1 X75.472 Y91.175 E19.1352
G1 X75.543 Y91.413 E19.14346
G1 X75.54 Y91.738 E19.15427
G1 X75.437 Y92.246 E19.17151
G1 X75.521 Y92.948 E19.19503
G1 X75.443 Y93.349 E19.20862
G1 X75.442 Y93.882 E19.22634
G1 X75.511 Y94.171 E19.23623
G1 X75.472 Y96.527 E19.3146
G1 X75.506 Y96.986 E19.32991
G1 X75.465 Y97.183 E19.3366
G1 X75.483 Y97.65 E19.35214
G1 X75.443 Y97.867 E19.35948
G0 F3600 X75.283 Y89.991
G1 F1800 X75.012 Y89.72 E19.37223
G0 F3600 X74.446 Y89.72
G1 F1800 X75.262 Y90.535 E19.41059
G0 F3600 X75.268 Y91.107
G1 F1800 X73.881 Y89.72 E19.47583
G0 F3600 X73.315 Y89.72
G1 F1800 X75.336 Y91.741 E19.57089
G0 F3600 X75.24 Y92.211
G1 F1800 X72.749 Y89.72 E19.68806
G0 F3600 X72.184 Y89.72
G1 F1800 X75.308 Y92.844 E19.835
G0 F3600 X75.241 Y93.343
G1 F1800 X71.618 Y89.72 E20.00542
G0 F3600 X71.052 Y89.72
G1 F1800 X75.244 Y93.912 E20.2026
G0 F3600 X75.305 Y94.538
G1 F1800 X70.487 Y89.72 E20.42922
G0 F3600 X69.921 Y89.72
G1 F1800 X75.296 Y95.095 E20.68204
G0 F3600 X75.286 Y95.651
G1 F1800 X69.355 Y89.72 E20.96102
G0 F3600 X68.789 Y89.72
G1 F1800 X75.277 Y96.208 E21.26619
G0 F3600 X75.292 Y96.788
G1 F1800 X68.241 Y89.738 E21.59783
G0 F3600 X67.734 Y89.796
G1 F1800 X75.272 Y97.334 E21.95239
G0 F3600 X75.247 Y97.874
G1 F1800 X67.27 Y89.897 E22.32761
G0 F3600 X66.835 Y90.028
G1 F1800 X75.262 Y98.455 E22.72399
G0 F3600 X75.254 Y99.013
G1 F1800 X66.444 Y90.203 E23.13838
G0 F3600 X66.057 Y90.382
G1 F1800 X75.223 Y99.548 E23.56952
G0 F3600 X74.658 Y99.548
G1 F1800 X65.722 Y90.612 E23.98984
G0 F3600 X65.393 Y90.849
G1 F1800 X74.092 Y99.548 E24.39902
G0 F3600 X73.526 Y99.548
G1 F1800 X65.091 Y91.113 E24.79578
G0 F3600 X64.818 Y91.406
G1 F1800 X72.961 Y99.548 E25.17877
G0 F3600 X72.395 Y99.548
G1 F1800 X64.563 Y91.716 E25.54717
G0 F3600 X64.321 Y92.039
G1 F1800 X71.829 Y99.548 E25.90034
G0 F3600 X71.264 Y99.548
G1 F1800 X64.121 Y92.405 E26.23633
G0 F3600 X63.938 Y92.788
G1 F1800 X70.698 Y99.548 E26.5543
G0 F3600 X70.132 Y99.548
G1 F1800 X63.791 Y93.207 E26.85256
G0 F3600 X63.664 Y93.645
G1 F1800 X69.567 Y99.548 E27.13022
G0 F3600 X69.001 Y99.548
G1 F1800 X63.599 Y94.146 E27.38431
G0 F3600 X63.584 Y94.697
G1 F1800 X68.425 Y99.537 E27.61199
G0 F3600 X67.799 Y99.477
G1 F1800 X63.611 Y95.29 E27.80896
G0 F3600 X63.758 Y96.002
G1 F1800 X67.068 Y99.312 E27.96465
G1 X67.138 Y99.382
G0 F3600 X66.08 Y98.89
G1 F1800 X64.173 Y96.983 E28.05435
G1 X64.103 Y96.913
M104 S200
G1 F2100 E27.25435
;MESH:NONMESH
G0 F600 X64.103 Y96.913 Z0.35
G0 F3600 X64.423 Y89.628
G0 X63.786 Y88.752
G0 X63.026 Y86.16
;TIME_ELAPSED:35.089056
;LAYER:1
M106 S255
;TYPE:SKIRT
G1 F2100 E28.05435
G1 F1800 X64.033 Y85.604 E28.08305
G1 X64.912 Y85.213 E28.10705
G1 X66.173 Y84.823 E28.13997
G1 X66.716 Y84.712 E28.1538
G1 X67.847 Y84.555 E28.18228
G1 X68.809 Y84.537 E28.20628
G1 X127.545 Y84.535 E29.67146
G1 X128.235 Y84.545 E29.68867
G1 X128.739 Y84.593 E29.7013
G1 X129.228 Y84.718 E29.71389
G1 X129.692 Y84.92 E29.72651
G1 X130.118 Y85.192 E29.73912
G1 X130.496 Y85.528 E29.75174
G1 X130.817 Y85.919 E29.76436
G1 X131.072 Y86.355 E29.77696
G1 X131.254 Y86.827 E29.78958
G1 X131.374 Y87.379 E29.80367
G1 X131.448 Y88.772 E29.83847
G1 X131.505 Y90.335 E29.87748
G1 X131.518 Y92.091 E29.92128
G1 X131.512 Y93.84 E29.96491
G1 X131.501 Y94.53 E29.98213
G1 X131.489 Y94.653 E29.98521
G1 X131.404 Y100.888 E30.14076
G1 X131.384 Y101.598 E30.15848
G1 X131.33 Y102.101 E30.1711
G1 X131.197 Y102.589 E30.18371
G1 X130.989 Y103.05 E30.19633
G1 X130.711 Y103.472 E30.20894
G1 X130.371 Y103.845 E30.22152
G1 X129.975 Y104.16 E30.23415
G1 X129.535 Y104.409 E30.24676
G1 X129.061 Y104.586 E30.25938
G1 X128.468 Y104.705 E30.27447
G1 X127.461 Y104.719 E30.29959
G1 X69.207 Y104.731 E31.75274
