;FLAVOR:Marlin
;TIME:6828
;Filament used: 5.52245m
;Layer height: 0.15
;MINX:83.865
;MINY:63.87
;MINZ:0.2
;MAXX:166.135
;MAXY:146.124
;MAXZ:8.45
;TARGET_MACHINE.NAME:Prusa i3 Mk3/Mk3s
;Generated with Cura_SteamEngine 5.7.1
M82 ;absolute extrusion mode
G21 ; set units to millimeters
G90 ; use absolute positioning
M82 ; absolute extrusion mode
M104 S200 ; set extruder temp
M140 S60 ; set bed temp
M190 S60 ; wait for bed temp
M109 S200 ; wait for extruder temp
G28 W ; home all without mesh bed level
G80 ; mesh bed leveling
G92 E0.0 ; reset extruder distance position
G1 Y-3.0 F1000.0 ; go outside print area
G1 X60.0 E9.0 F1000.0 ; intro line
G1 X100.0 E21.5 F1000.0 ; intro line
G92 E0.0 ; reset extruder distance position
G92 E0
G92 E0
G1 F2100 E-0.8
;LAYER_COUNT:56
;LAYER:0
M107
G0 F3600 X93.515 Y78.511 Z0.2
;TYPE:SKIRT
G1 F2100 E0
G1 F1800 X94.885 Y76.985 E0.06821
G1 X95.307 Y76.529 E0.08887
G1 X95.708 Y76.119 E0.10795
G1 X96.989 Y74.884 E0.16713
G1 X97.815 Y74.125 E0.20444
G1 X99.209 Y72.963 E0.2648
G1 X99.989 Y72.333 E0.29815
G1 X101.652 Y71.145 E0.36612
G1 X102.64 Y70.476 E0.40581
G1 X104.217 Y69.515 E0.46723
G1 X105.252 Y68.92 E0.50694
G1 X106.856 Y68.095 E0.56693
G1 X107.895 Y67.595 E0.60528
G1 X109.527 Y66.901 E0.66427
G1 X110.654 Y66.454 E0.70459
G1 X112.442 Y65.844 E0.76743
G1 X113.521 Y65.507 E0.80502
G1 X115.296 Y65.042 E0.86605
G1 X116.465 Y64.769 E0.90598
G1 X118.219 Y64.445 E0.96531
G1 X119.42 Y64.255 E1.00575
G1 X121.164 Y64.063 E1.0641
G1 X122.381 Y63.958 E1.10473
G1 X124.267 Y63.889 E1.1675
G1 X125.224 Y63.87 E1.19934
G1 X127.263 Y63.945 E1.2672
G1 X128.155 Y63.991 E1.29691
G1 X130.212 Y64.214 E1.36573
G1 X130.907 Y64.3 E1.38902
G1 X131.441 Y64.383 E1.40699
G1 X133.232 Y64.713 E1.46756
G1 X134.335 Y64.945 E1.50505
G1 X136.046 Y65.393 E1.56388
G1 X137.048 Y65.673 E1.59848
G1 X139.01 Y66.34 E1.66741
G1 X139.921 Y66.673 E1.69967
G1 X141.763 Y67.451 E1.76617
G1 X142.825 Y67.934 E1.80498
G1 X144.475 Y68.781 E1.86666
G1 X145.321 Y69.233 E1.89857
G1 X147.001 Y70.256 E1.96399
G1 X147.667 Y70.675 E1.99016
G1 X148.148 Y71 E2.00947
G1 X149.529 Y71.988 E2.06594
G1 X150.334 Y72.586 E2.0993
G1 X151.862 Y73.856 E2.16538
G1 X152.618 Y74.506 E2.19854
G1 X154.062 Y75.896 E2.2652
G1 X154.568 Y76.398 E2.28891
G1 X154.948 Y76.798 E2.30726
G1 X156.151 Y78.14 E2.36721
G1 X156.887 Y79.006 E2.40501
G1 X158.013 Y80.462 E2.46622
G1 X158.42 Y81.005 E2.4888
G1 X158.718 Y81.428 E2.50601
G1 X159.692 Y82.899 E2.56468
G1 X160.249 Y83.767 E2.59899
G1 X161.248 Y85.55 E2.66696
G1 X161.683 Y86.353 E2.69734
G1 X162.571 Y88.245 E2.76685
G1 X162.964 Y89.12 E2.79876
G1 X163.679 Y90.988 E2.86528
G1 X164.036 Y91.967 E2.89994
G1 X164.859 Y94.752 E2.99653
G1 X165.301 Y96.723 E3.06371
G1 X165.536 Y97.913 E3.10406
G1 X165.81 Y99.777 E3.16672
G1 X165.93 Y100.747 E3.19923
G1 X166.076 Y102.702 E3.26443
G1 X166.133 Y103.671 E3.29672
G1 X166.135 Y105.723 E3.36497
G1 X166.125 Y106.428 E3.38842
G1 X166.102 Y106.952 E3.40586
G1 X165.968 Y108.775 E3.46666
G1 X165.856 Y109.908 E3.50453
G1 X165.588 Y111.732 E3.56585
G1 X165.394 Y112.854 E3.60372
G1 X165.005 Y114.6 E3.66321
G1 X164.764 Y115.605 E3.69759
G1 X164.173 Y117.569 E3.7658
G1 X163.813 Y118.665 E3.80417
G1 X163.184 Y120.309 E3.86272
G1 X162.782 Y121.312 E3.89866
G1 X161.925 Y123.135 E3.96566
G1 X161.409 Y124.165 E4.00397
G1 X160.488 Y125.806 E4.06656
G1 X159.917 Y126.764 E4.10366
G1 X158.941 Y128.24 E4.16251
G1 X158.386 Y129.052 E4.19522
G1 X157.153 Y130.651 E4.26238
G1 X156.491 Y131.481 E4.29769
G1 X155.096 Y133.037 E4.3672
G1 X154.34 Y133.836 E4.40378
G1 X153.025 Y135.104 E4.46454
G1 X152.282 Y135.797 E4.49834
G1 X150.791 Y137.037 E4.56283
G1 X150.011 Y137.667 E4.59618
G1 X148.348 Y138.855 E4.66416
G1 X147.36 Y139.524 E4.70384
G1 X145.784 Y140.485 E4.76524
G1 X144.904 Y140.995 E4.79907
G1 X143.154 Y141.898 E4.86456
G1 X142.242 Y142.347 E4.89837
G1 X140.491 Y143.092 E4.96167
G1 X139.297 Y143.564 E5.00437
G1 X137.626 Y144.134 E5.06309
G1 X136.479 Y144.493 E5.10307
G1 X134.731 Y144.951 E5.16317
G1 X133.71 Y145.2 E5.19812
G1 X131.117 Y145.669 E5.28576
G1 X130.596 Y145.744 E5.30327
G1 X128.769 Y145.945 E5.3644
G1 X127.613 Y146.043 E5.40299
G1 X125.713 Y146.113 E5.46623
G1 X124.586 Y146.124 E5.50371
G1 X122.786 Y146.059 E5.56362
G1 X121.592 Y145.984 E5.60341
G1 X119.867 Y145.795 E5.66113
G1 X118.599 Y145.624 E5.70368
G1 X116.823 Y145.297 E5.76375
G1 X115.865 Y145.105 E5.79624
G1 X113.937 Y144.601 E5.86252
G1 X112.941 Y144.323 E5.89692
G1 X110.989 Y143.659 E5.96549
G1 X109.932 Y143.268 E6.00298
G1 X108.25 Y142.555 E6.06374
G1 X107.172 Y142.065 E6.10313
G1 X105.506 Y141.21 E6.16541
G1 X104.541 Y140.683 E6.20198
G1 X102.978 Y139.731 E6.26285
G1 X101.959 Y139.074 E6.30317
G1 X100.47 Y138.011 E6.36402
G1 X99.71 Y137.451 E6.39542
G1 X98.137 Y136.145 E6.46342
G1 X97.374 Y135.489 E6.49689
G1 X95.919 Y134.086 E6.56412
G1 X95.087 Y133.241 E6.60356
G1 X93.842 Y131.851 E6.66562
G1 X93.117 Y130.997 E6.70288
G1 X92.031 Y129.593 E6.76192
G1 X91.572 Y128.983 E6.78731
G1 X91.214 Y128.47 E6.80812
G1 X90.307 Y127.1 E6.86276
G1 X89.749 Y126.228 E6.8972
G1 X88.388 Y123.78 E6.99035
G1 X88.162 Y123.322 E7.00734
G1 X87.452 Y121.804 E7.06308
G1 X86.962 Y120.686 E7.10368
G1 X86.322 Y119.016 E7.16316
G1 X85.988 Y118.103 E7.1955
G1 X85.396 Y116.14 E7.26369
G1 X85.206 Y115.473 E7.28676
G1 X85.068 Y114.924 E7.30559
G1 X84.682 Y113.194 E7.36454
G1 X84.492 Y112.27 E7.39592
G1 X84.195 Y110.249 E7.46386
G1 X84.074 Y109.332 E7.49462
G1 X83.925 Y107.307 E7.56216
G1 X83.867 Y106.324 E7.59491
G1 X83.865 Y104.277 E7.66299
G1 X83.875 Y103.571 E7.68647
G1 X83.898 Y103.048 E7.70389
G1 X84.031 Y101.226 E7.76465
G1 X84.12 Y100.29 E7.79592
G1 X84.409 Y98.293 E7.86303
G1 X84.614 Y97.113 E7.90287
G1 X85.009 Y95.341 E7.96325
G1 X85.232 Y94.407 E7.99519
G1 X85.812 Y92.481 E8.06209
G1 X86.123 Y91.505 E8.09616
G1 X86.843 Y89.624 E8.16315
G1 X87.217 Y88.692 E8.19655
G1 X88.063 Y86.89 E8.26276
G1 X88.373 Y86.251 E8.28638
G1 X88.649 Y85.729 E8.30602
G1 X89.456 Y84.293 E8.36081
G1 X90.11 Y83.196 E8.40329
G1 X91.094 Y81.708 E8.46262
G1 X91.489 Y81.13 E8.48591
G1 X91.865 Y80.618 E8.50703
G1 X92.854 Y79.34 E8.56078
G1 X93.515 Y78.511 E8.59605
G1 F2100 E7.79605
;MESH:Batman_Disc_Golf_Marker_Disc_2.0.stl
G0 F3600 X96.057 Y80.868
G0 X96.864 Y81.591
G0 X96.872 Y114.134
G0 X133.623 Y115.72
;TYPE:WALL-INNER
G1 F2100 E8.59605
G1 F1800 X133.224 Y115.456 E8.61196
G1 X133.054 Y115.263 E8.62051
G1 X132.872 Y114.926 E8.63325
G1 X132.72 Y114.216 E8.6574
G1 X132.442 Y113.444 E8.68469
G1 X132.005 Y112.76 E8.71169
G1 X131.434 Y112.183 E8.73869
G1 X130.74 Y111.737 E8.76613
G1 X129.962 Y111.455 E8.79365
G1 X129.15 Y111.351 E8.82088
G1 X128.654 Y111.374 E8.83739
G1 X127.926 Y114.128 E8.93214
G1 X127.664 Y114.56 E8.94894
G1 X127.252 Y114.884 E8.96637
G1 X126.948 Y114.999 E8.97719
G1 X126.698 Y115.038 E8.9856
G1 X126.313 Y115.023 E8.99842
G1 X125.838 Y114.855 E9.01517
G1 X125.658 Y114.731 E9.02244
G1 X125.414 Y114.478 E9.03413
G1 X125.178 Y113.981 E9.05243
G1 X124.998 Y113.264 E9.07702
G1 X124.818 Y113.981 E9.10161
G1 X124.582 Y114.478 E9.11991
G1 X124.338 Y114.731 E9.1316
G1 X124.158 Y114.855 E9.13887
G1 X123.683 Y115.023 E9.15563
G1 X123.302 Y115.038 E9.16831
G1 X123.017 Y114.99 E9.17792
G1 X122.663 Y114.836 E9.19076
G1 X122.454 Y114.681 E9.19941
G1 X122.206 Y114.385 E9.21226
G1 X122.055 Y114.057 E9.22427
G1 X121.343 Y111.375 E9.31656
G1 X120.846 Y111.35 E9.33311
G1 X120.033 Y111.455 E9.36038
G1 X119.26 Y111.737 E9.38775
G1 X118.568 Y112.181 E9.41509
G1 X117.991 Y112.76 E9.44228
G1 X117.555 Y113.45 E9.46943
G1 X117.277 Y114.215 E9.4965
G1 X117.131 Y114.918 E9.52038
G1 X116.949 Y115.259 E9.53323
G1 X116.778 Y115.454 E9.54186
G1 X116.377 Y115.72 E9.55787
G1 X115.886 Y115.835 E9.57464
G1 X97.545 Y115.797 E10.18466
G1 X97.108 Y115.726 E10.19939
G1 X96.682 Y115.497 E10.21548
G1 X96.331 Y115.09 E10.23335
G1 X96.207 Y114.801 E10.24381
G1 X96.137 Y114.26 E10.26195
G1 X96.179 Y113.979 E10.2714
G1 X96.374 Y113.541 E10.28735
G1 X96.653 Y113.237 E10.30107
G1 X96.949 Y113.052 E10.31268
G1 X98.797 Y112.286 E10.37922
G1 X100.53 Y111.249 E10.44639
G1 X102.098 Y109.953 E10.51405
G1 X103.434 Y108.476 E10.58029
G1 X103.733 Y107.989 E10.5993
G1 X104 Y107.421 E10.62017
G1 X104.19 Y106.844 E10.64038
G1 X104.306 Y106.252 E10.66044
G1 X104.357 Y105.631 E10.68117
G1 X104.332 Y105.022 E10.70144
G1 X104.235 Y104.424 E10.72159
G1 X104.018 Y103.661 E10.74797
G1 X103.993 Y103.242 E10.76193
G1 X104.101 Y102.814 E10.77662
G1 X104.201 Y102.625 E10.78373
G1 X104.462 Y102.317 E10.79715
G1 X104.924 Y102.046 E10.81497
G1 X105.42 Y101.962 E10.8317
G1 X107.995 Y102.249 E10.91788
G1 X110.388 Y102.295 E10.99748
G1 X112.784 Y102.113 E11.0774
G1 X115.204 Y101.699 E11.15906
G1 X116.696 Y101.458 E11.20933
G1 X118.038 Y101.035 E11.25613
G1 X119.313 Y100.418 E11.30324
G1 X120.475 Y99.636 E11.34983
G1 X121.505 Y98.694 E11.39625
G1 X122.404 Y97.599 E11.44337
G1 X123.124 Y96.4 E11.48989
G1 X123.754 Y94.915 E11.54354
G1 X123.993 Y94.626 E11.55601
G1 X124.391 Y94.356 E11.57201
G1 X124.715 Y94.255 E11.5833
G1 X125.281 Y94.254 E11.60212
G1 X125.612 Y94.359 E11.61367
G1 X125.815 Y94.473 E11.62142
G1 X126.108 Y94.74 E11.6346
G1 X126.279 Y94.989 E11.64465
G1 X126.781 Y96.223 E11.68896
G1 X127.365 Y97.266 E11.72872
G1 X128.006 Y98.144 E11.76487
G1 X128.79 Y99.002 E11.80353
G1 X129.627 Y99.725 E11.84032
G1 X130.531 Y100.332 E11.87653
G1 X131.51 Y100.848 E11.91334
G1 X132.533 Y101.246 E11.94985
G1 X133.557 Y101.514 E11.98505
G1 X134.761 Y101.692 E12.02553
G1 X137.216 Y102.113 E12.10838
G1 X139.612 Y102.295 E12.1883
G1 X142.001 Y102.249 E12.26777
G1 X144.548 Y101.969 E12.353
G1 X144.962 Y102.012 E12.36684
G1 X145.424 Y102.227 E12.38379
G1 X145.676 Y102.457 E12.39514
G1 X145.899 Y102.815 E12.40917
G1 X146.007 Y103.242 E12.42382
G1 X145.982 Y103.662 E12.43781
G1 X145.76 Y104.431 E12.46443
G1 X145.664 Y105.022 E12.48435
G1 X145.639 Y105.642 E12.50498
G1 X145.689 Y106.247 E12.52518
G1 X145.809 Y106.844 E12.54543
G1 X145.997 Y107.424 E12.56571
G1 X146.261 Y107.987 E12.58639
G1 X146.564 Y108.475 E12.60549
G1 X147.899 Y109.953 E12.67174
G1 X149.466 Y111.249 E12.73937
G1 X151.199 Y112.285 E12.80653
G1 X153.051 Y113.052 E12.8732
G1 X153.347 Y113.236 E12.88479
G1 X153.626 Y113.542 E12.89856
G1 X153.822 Y113.98 E12.91452
G1 X153.864 Y114.297 E12.92516
G1 X153.832 Y114.628 E12.93622
G1 X153.667 Y115.089 E12.9525
G1 X153.508 Y115.313 E12.96164
G1 X153.315 Y115.496 E12.97049
G1 X152.888 Y115.726 E12.98662
G1 X152.451 Y115.796 E13.00134
G1 X134.114 Y115.835 E13.61123
G1 X133.623 Y115.72 E13.628
G0 F3600 X133.594 Y115.244
G1 F1800 X133.376 Y115.027 E13.63823
G1 X133.223 Y114.744 E13.64893
G1 X133.11 Y114.122 E13.66996
G1 X132.978 Y113.681 E13.68527
G1 X132.583 Y112.879 E13.715
G1 X132.009 Y112.162 E13.74555
G1 X131.685 Y111.87 E13.76006
G1 X130.918 Y111.378 E13.79037
G1 X130.057 Y111.066 E13.82083
G1 X129.626 Y110.985 E13.83541
G1 X128.713 Y110.962 E13.86579
G1 X128.335 Y111.016 E13.87849
G1 X127.549 Y113.989 E13.98077
G1 X127.363 Y114.297 E13.99274
G1 X127.068 Y114.529 E14.00522
G1 X126.672 Y114.639 E14.01889
G1 X126.305 Y114.614 E14.03112
G1 X126.037 Y114.508 E14.04071
G1 X125.734 Y114.239 E14.05418
G1 X125.566 Y113.884 E14.06725
G1 X125.292 Y112.792 E14.10469
G1 X124.704 Y112.792 E14.12425
G1 X124.43 Y113.884 E14.1617
G1 X124.262 Y114.239 E14.17476
G1 X124.087 Y114.42 E14.18313
G1 X123.804 Y114.58 E14.19395
G1 X123.514 Y114.639 E14.20379
G1 X123.269 Y114.633 E14.21194
G1 X122.982 Y114.553 E14.22185
G1 X122.634 Y114.294 E14.23628
G1 X122.45 Y113.986 E14.24821
G1 X121.662 Y111.016 E14.35041
G1 X120.837 Y110.949 E14.37794
G1 X119.938 Y111.066 E14.40809
G1 X119.082 Y111.378 E14.4384
G1 X118.316 Y111.869 E14.46866
G1 X117.678 Y112.51 E14.49874
G1 X117.196 Y113.273 E14.52876
G1 X116.887 Y114.122 E14.55881
G1 X116.755 Y114.78 E14.58113
G1 X116.626 Y115.024 E14.59031
G1 X116.304 Y115.31 E14.60463
G1 X115.896 Y115.436 E14.61883
G1 X97.545 Y115.397 E15.22919
G1 X97.234 Y115.346 E15.23967
G1 X96.929 Y115.182 E15.25119
G1 X96.689 Y114.91 E15.26326
G1 X96.59 Y114.685 E15.27143
G1 X96.536 Y114.278 E15.28509
G1 X96.566 Y114.077 E15.29185
G1 X96.706 Y113.765 E15.30322
G1 X96.905 Y113.547 E15.31304
G1 X97.117 Y113.415 E15.32135
G1 X98.977 Y112.644 E15.38831
G1 X100.761 Y111.576 E15.45747
G1 X102.375 Y110.243 E15.52709
G1 X103.756 Y108.717 E15.59555
G1 X104.086 Y108.18 E15.61651
G1 X104.373 Y107.569 E15.63896
G1 X104.578 Y106.946 E15.66078
G1 X104.703 Y106.306 E15.68246
G1 X104.758 Y105.639 E15.70472
G1 X104.731 Y104.982 E15.72659
G1 X104.626 Y104.336 E15.74836
G1 X104.401 Y103.535 E15.77604
G1 X104.39 Y103.295 E15.78403
G1 X104.469 Y102.972 E15.79509
G1 X104.627 Y102.718 E15.80503
G1 X104.806 Y102.554 E15.81311
G1 X105.137 Y102.399 E15.82527
G1 X105.403 Y102.363 E15.83419
G1 X107.969 Y102.649 E15.92007
G1 X110.399 Y102.695 E16.0009
G1 X112.833 Y102.51 E16.08209
G1 X115.28 Y102.092 E16.16466
G1 X116.788 Y101.848 E16.21547
G1 X118.186 Y101.408 E16.26421
G1 X119.512 Y100.766 E16.31321
G1 X120.723 Y99.951 E16.36176
G1 X121.796 Y98.97 E16.41012
G1 X122.732 Y97.83 E16.45918
G1 X123.482 Y96.582 E16.50761
G1 X124.094 Y95.144 E16.55959
G1 X124.233 Y94.953 E16.56744
G1 X124.406 Y94.804 E16.57504
G1 X124.619 Y94.694 E16.58301
G1 X124.93 Y94.632 E16.59356
G1 X125.328 Y94.677 E16.60688
G1 X125.638 Y94.839 E16.61851
G1 X125.922 Y95.173 E16.6331
G1 X126.419 Y96.397 E16.67703
G1 X127.028 Y97.482 E16.71842
G1 X127.696 Y98.397 E16.7561
G1 X128.511 Y99.289 E16.79628
G1 X129.384 Y100.043 E16.83465
G1 X130.326 Y100.676 E16.8724
G1 X131.344 Y101.212 E16.91066
G1 X132.409 Y101.627 E16.94868
G1 X133.477 Y101.906 E16.98539
G1 X134.693 Y102.086 E17.02628
G1 X137.167 Y102.51 E17.10976
G1 X139.601 Y102.695 E17.19095
G1 X142.027 Y102.649 E17.27166
G1 X144.566 Y102.368 E17.35662
G1 X145.027 Y102.457 E17.37224
G1 X145.324 Y102.664 E17.38428
G1 X145.498 Y102.903 E17.39411
G1 X145.61 Y103.295 E17.40767
G1 X145.599 Y103.535 E17.41566
G1 X145.369 Y104.342 E17.44357
G1 X145.265 Y104.982 E17.46514
G1 X145.238 Y105.65 E17.48737
G1 X145.292 Y106.303 E17.50916
G1 X145.421 Y106.946 E17.53098
G1 X145.624 Y107.571 E17.55283
G1 X145.909 Y108.178 E17.57514
G1 X146.243 Y108.716 E17.5962
G1 X147.622 Y110.243 E17.66463
G1 X149.235 Y111.576 E17.73423
G1 X151.019 Y112.643 E17.80337
G1 X152.883 Y113.415 E17.87047
G1 X153.095 Y113.547 E17.87878
G1 X153.294 Y113.765 E17.8886
G1 X153.434 Y114.078 E17.9
G1 X153.464 Y114.304 E17.90758
G1 X153.441 Y114.542 E17.91554
G1 X153.319 Y114.891 E17.92783
G1 X153.067 Y115.182 E17.94064
G1 X152.763 Y115.346 E17.95212
G1 X152.451 Y115.396 E17.96263
G1 X134.134 Y115.435 E18.57186
G1 X133.783 Y115.353 E18.58385
G1 X133.594 Y115.244 E18.59111
G0 F3600 X133.593 Y115.338
G0 X153.321 Y115.225
G0 X153.009 Y114.611
G1 F1800 X152.82 Y114.868 E18.60172
G1 X152.518 Y114.996 E18.61263
G1 X134.154 Y115.036 E19.22342
G1 X133.953 Y114.991 E19.23027
G1 X133.772 Y114.874 E19.23744
G1 X133.607 Y114.62 E19.24751
G1 X133.499 Y114.029 E19.26749
G1 X133.354 Y113.545 E19.2843
G1 X133.16 Y113.09 E19.30075
G1 X132.921 Y112.664 E19.317
G1 X132.63 Y112.26 E19.33356
G1 X132.293 Y111.88 E19.35045
G1 X131.936 Y111.558 E19.36644
G1 X131.52 Y111.262 E19.38342
G1 X131.096 Y111.019 E19.39967
G1 X130.638 Y110.825 E19.41622
G1 X130.152 Y110.676 E19.43312
G1 X129.678 Y110.588 E19.44916
G1 X129.169 Y110.549 E19.46614
G1 X128.679 Y110.563 E19.48244
G1 X128.016 Y110.659 E19.50472
G1 X127.163 Y113.869 E19.61519
G1 X127.009 Y114.088 E19.6241
G1 X126.786 Y114.214 E19.63262
G1 X126.503 Y114.24 E19.64207
G1 X126.329 Y114.204 E19.64798
G1 X126.055 Y114 E19.65934
G1 X125.954 Y113.787 E19.66718
G1 X125.604 Y112.392 E19.71502
G1 X124.392 Y112.392 E19.75533
G1 X124.042 Y113.787 E19.80317
G1 X123.941 Y114 E19.81101
G1 X123.667 Y114.204 E19.82237
G1 X123.493 Y114.24 E19.82828
G1 X123.259 Y114.226 E19.83607
G1 X123.079 Y114.153 E19.84253
G1 X122.937 Y114.033 E19.84872
G1 X122.835 Y113.865 E19.85525
G1 X121.981 Y110.658 E19.96564
G1 X121.317 Y110.563 E19.98795
G1 X120.827 Y110.549 E20.00425
G1 X120.322 Y110.588 E20.0211
G1 X119.843 Y110.676 E20.0373
G1 X119.359 Y110.825 E20.05414
G1 X118.904 Y111.019 E20.07059
