;FLAVOR:Marlin
;TIME:5077
;Filament used: 6.48849m
;Layer height: 0.2
;MINX:42.385
;MINY:55.915
;MINZ:0.2
;MAXX:204.615
;MAXY:145.085
;MAXZ:9
;TARGET_MACHINE.NAME:Prusa i3 Mk3/Mk3s
;Generated with Cura_SteamEngine 5.8.1
M82 ;absolute extrusion mode
G21 ; set units to millimeters
G90 ; use absolute positioning
M82 ; absolute extrusion mode
M104 S200 ; set extruder temp
M140 S60 ; set bed temp
M190 S60 ; wait for bed temp
M109 S200 ; wait for extruder temp
G28 W ; home all without mesh bed level
G80 ; mesh bed leveling
G92 E0.0 ; reset extruder distance position
G1 Y-3.0 F1000.0 ; go outside print area
G1 X60.0 E9.0 F1000.0 ; intro line
G1 X100.0 E21.5 F1000.0 ; intro line
G92 E0.0 ; reset extruder distance position
G92 E0
G92 E0
G1 F2100 E-0.8
;LAYER_COUNT:45
;LAYER:0
M107
G0 F3600 X43.77 Y56.495 Z0.2
;TYPE:SKIRT
G1 F2100 E0
G1 F1800 X44.207 Y56.241 E0.01681
G1 X44.678 Y56.058 E0.03362
G1 X45.173 Y55.952 E0.05045
G1 X45.825 Y55.916 E0.07217
G1 X200.754 Y55.915 E5.22513
G1 X201.452 Y55.925 E5.24835
G1 X201.955 Y55.972 E5.26515
G1 X202.445 Y56.098 E5.28198
G1 X202.909 Y56.3 E5.29881
G1 X203.335 Y56.572 E5.31562
G1 X203.713 Y56.907 E5.33242
G1 X204.033 Y57.298 E5.34923
G1 X204.288 Y57.735 E5.36606
G1 X204.471 Y58.206 E5.38286
G1 X204.578 Y58.7 E5.39967
G1 X204.614 Y59.355 E5.42149
G1 X204.615 Y129.115 E7.74172
G1 X204.6 Y130.144 E7.77595
G1 X204.567 Y130.832 E7.79886
G1 X204.518 Y131.394 E7.81762
G1 X204.404 Y132.278 E7.84727
G1 X204.176 Y133.396 E7.88522
G1 X203.855 Y134.523 E7.92419
G1 X203.458 Y135.574 E7.96156
G1 X203.078 Y136.43 E7.99271
G1 X202.844 Y136.893 E8.00996
G1 X202.444 Y137.619 E8.03753
G1 X201.982 Y138.335 E8.06587
G1 X201.683 Y138.763 E8.08324
G1 X201.124 Y139.493 E8.11382
G1 X200.249 Y140.467 E8.15737
G1 X199.411 Y141.259 E8.19572
G1 X198.7 Y141.854 E8.22655
G1 X197.729 Y142.549 E8.26627
G1 X196.71 Y143.169 E8.30594
G1 X195.654 Y143.696 E8.34519
G1 X194.693 Y144.093 E8.37978
G1 X193.587 Y144.469 E8.41863
G1 X192.453 Y144.751 E8.4575
G1 X191.319 Y144.949 E8.49578
G1 X190.199 Y145.051 E8.53319
G1 X188.34 Y145.085 E8.59503
G1 X58.614 Y145.084 E12.90974
G1 X56.824 Y145.047 E12.96928
G1 X56.225 Y145.004 E12.98926
G1 X55.28 Y144.882 E13.02095
G1 X54.404 Y144.714 E13.05062
G1 X53.626 Y144.518 E13.0773
G1 X52.754 Y144.253 E13.10761
G1 X52.181 Y144.043 E13.12791
G1 X51.5 Y143.758 E13.15247
G1 X50.612 Y143.335 E13.18518
G1 X49.67 Y142.797 E13.22126
G1 X48.901 Y142.297 E13.25177
G1 X47.954 Y141.577 E13.29134
G1 X47.061 Y140.781 E13.33112
G1 X46.192 Y139.857 E13.37331
G1 X45.568 Y139.108 E13.40574
G1 X44.936 Y138.225 E13.44185
G1 X44.312 Y137.197 E13.48185
G1 X43.946 Y136.48 E13.50863
G1 X43.701 Y135.952 E13.52799
G1 X43.299 Y134.951 E13.56386
G1 X43.091 Y134.327 E13.58574
G1 X42.942 Y133.823 E13.60322
G1 X42.792 Y133.225 E13.62373
G1 X42.679 Y132.7 E13.64159
G1 X42.535 Y131.882 E13.66921
G1 X42.419 Y130.665 E13.70987
G1 X42.385 Y128.81 E13.77158
G1 X42.385 Y59.741 E16.06883
G1 X42.395 Y59.076 E16.09095
G1 X42.443 Y58.573 E16.10775
G1 X42.569 Y58.083 E16.12458
G1 X42.771 Y57.619 E16.14141
G1 X43.043 Y57.193 E16.15822
G1 X43.379 Y56.816 E16.17502
G1 X43.77 Y56.495 E16.19184
G1 F2100 E15.39184
;MESH:iPhone 12 TEST SLICE.stl
G0 F3600 X57.569 Y65.025
G0 X56.684 Y65.248
G0 X55.03 Y65.976
G0 X53.519 Y66.965
G0 X52.19 Y68.19
G0 X51.082 Y69.617
G0 X50.226 Y71.197
G0 X49.638 Y72.916
G0 X49.343 Y74.689
G0 X49.344 Y128.724
G0 X49.64 Y130.497
G0 X50.231 Y132.215
G0 X51.092 Y133.803
G0 X52.204 Y135.228
G0 X53.526 Y136.445
G0 X55.047 Y137.437
G0 X55.85 Y137.831
G0 X57.569 Y138.419
G0 X59.342 Y138.714
G0 X187.059 Y139.805
;TYPE:WALL-INNER
G1 F2100 E16.19184
G1 F1220.3 X59.866 Y139.804 E22.43177
G1 F1451.6 X59.436 Y139.681 E22.45021
G1 F1800 X59.194 Y139.665 E22.45828
G1 X58.244 Y139.539 E22.49015
G1 X57.392 Y139.364 E22.51908
G1 X56.403 Y139.076 E22.55334
G1 X55.518 Y138.733 E22.58491
G1 X54.636 Y138.306 E22.6175
G1 X53.788 Y137.808 E22.65021
G1 X52.887 Y137.166 E22.68701
G1 X52.228 Y136.604 E22.71582
G1 X51.456 Y135.835 E22.75206
G1 X50.886 Y135.163 E22.78137
G1 X50.317 Y134.376 E22.81367
G1 X49.81 Y133.529 E22.8465
G1 X49.374 Y132.648 E22.87919
G1 X48.969 Y131.621 E22.91591
G1 X48.693 Y130.671 E22.94882
G1 X48.517 Y129.832 E22.97733
G1 X48.381 Y128.751 E23.01357
G1 X48.344 Y127.82 E23.04456
G1 X48.345 Y75.534 E24.7836
G1 X48.39 Y74.548 E24.81642
G1 X48.512 Y73.593 E24.84845
G1 X48.718 Y72.623 E24.88143
G1 X49.004 Y71.681 E24.91417
G1 X49.324 Y70.864 E24.94335
G1 X49.75 Y69.984 E24.97587
G1 X50.307 Y69.038 E25.01239
G1 X50.89 Y68.235 E25.04539
G1 X51.518 Y67.505 E25.07742
G1 X52.218 Y66.807 E25.1103
G1 X52.974 Y66.168 E25.14322
G1 X53.674 Y65.668 E25.17183
G1 X54.62 Y65.106 E25.20843
G1 X55.504 Y64.678 E25.2411
G1 X56.429 Y64.317 E25.27412
G1 X57.265 Y64.069 E25.30312
G1 X58.266 Y63.856 E25.33716
G1 X59.306 Y63.729 E25.37201
G1 X60.178 Y63.693 E25.40104
G1 X186.81 Y63.693 E29.61284
G1 X187.795 Y63.738 E29.64563
G1 X188.756 Y63.86 E29.67785
G1 X189.726 Y64.066 E29.71083
G1 X190.662 Y64.351 E29.74338
G1 X191.482 Y64.671 E29.77265
G1 X192.459 Y65.148 E29.80881
G1 X193.304 Y65.655 E29.84159
G1 X194.109 Y66.234 E29.87457
G1 X194.761 Y66.79 E29.90307
G1 X195.463 Y67.485 E29.93592
G1 X196.101 Y68.226 E29.96845
G1 X196.741 Y69.121 E30.00504
G1 X197.235 Y69.963 E30.03751
G1 X197.668 Y70.849 E30.07031
G1 X198.027 Y71.775 E30.10334
G1 X198.303 Y72.722 E30.13615
G1 X198.498 Y73.677 E30.16857
G1 X198.606 Y74.537 E30.1974
G1 X198.651 Y75.522 E30.23019
G1 X198.651 Y127.866 E31.97116
G1 X198.606 Y128.852 E32.00399
G1 X198.485 Y129.808 E32.03604
G1 X198.308 Y130.66 E32.06498
G1 X197.995 Y131.714 E32.10155
G1 X197.631 Y132.641 E32.13468
G1 X197.198 Y133.513 E32.16706
G1 X196.692 Y134.358 E32.19982
G1 X196.17 Y135.092 E32.22977
G1 X195.478 Y135.902 E32.26521
G1 X194.782 Y136.595 E32.29788
G1 X194.027 Y137.229 E32.33067
G1 X193.327 Y137.733 E32.35936
G1 X192.469 Y138.248 E32.39264
G1 X191.488 Y138.729 E32.42898
G1 X190.588 Y139.076 E32.46106
G1 X189.612 Y139.365 E32.49491
G1 X188.73 Y139.544 E32.52485
G1 X187.697 Y139.671 E32.55946
G1 X187.485 Y139.68 E32.56652
G1 F1454.5 X187.059 Y139.805 E32.5848
G0 F3600 X186.806 Y139.311
G1 F1800 X60.244 Y139.312 E36.79426
G1 X59.33 Y139.276 E36.82469
G1 X58.325 Y139.148 E36.85838
G1 X57.473 Y138.972 E36.88732
G1 X56.53 Y138.697 E36.91999
G1 X55.588 Y138.327 E36.95365
G1 X54.812 Y137.947 E36.98239
G1 X53.924 Y137.419 E37.01675
G1 X53.147 Y136.861 E37.04857
G1 X52.439 Y136.254 E37.07959
G1 X51.761 Y135.576 E37.11148
G1 X51.193 Y134.907 E37.14067
G1 X50.61 Y134.095 E37.17391
G1 X50.142 Y133.304 E37.20448
G1 X49.733 Y132.472 E37.23532
G1 X49.352 Y131.508 E37.26979
G1 X49.085 Y130.589 E37.30162
G1 X48.895 Y129.67 E37.33284
G1 X48.78 Y128.734 E37.3642
G1 X48.744 Y127.82 E37.39463
G1 X48.744 Y75.55 E39.13313
G1 X48.78 Y74.678 E39.16216
G1 X48.904 Y73.673 E39.19584
G1 X49.101 Y72.738 E39.22762
G1 X49.349 Y71.906 E39.2565
G1 X49.696 Y71.01 E39.28846
G1 X50.109 Y70.16 E39.31989
G1 X50.581 Y69.35 E39.35107
G1 X51.195 Y68.495 E39.38608
G1 X51.802 Y67.787 E39.4171
G1 X52.478 Y67.111 E39.44889
G1 X53.206 Y66.494 E39.48063
G1 X53.977 Y65.948 E39.51206
G1 X54.725 Y65.504 E39.54099
G1 X55.58 Y65.081 E39.57271
G1 X56.543 Y64.701 E39.60715
G1 X57.379 Y64.453 E39.63615
G1 X58.335 Y64.25 E39.66866
G1 X59.322 Y64.128 E39.70173
G1 X60.236 Y64.092 E39.73216
G1 X186.794 Y64.093 E43.94149
G1 X187.666 Y64.128 E43.97052
G1 X188.675 Y64.252 E44.00433
G1 X189.612 Y64.449 E44.03618
G1 X190.516 Y64.724 E44.0676
G1 X191.41 Y65.076 E44.09956
G1 X192.182 Y65.452 E44.12812
G1 X193.072 Y65.981 E44.16256
G1 X193.781 Y66.485 E44.19149
G1 X194.501 Y67.095 E44.22288
G1 X195.18 Y67.768 E44.25467
G1 X195.85 Y68.554 E44.28902
G1 X196.397 Y69.325 E44.32047
G1 X196.876 Y70.14 E44.35191
G1 X197.296 Y70.995 E44.38359
G1 X197.643 Y71.89 E44.41552
G1 X197.891 Y72.722 E44.44439
G1 X198.101 Y73.727 E44.47854
G1 X198.216 Y74.67 E44.51014
G1 X198.252 Y75.538 E44.53903
G1 X198.252 Y127.85 E46.27894
G1 X198.216 Y128.722 E46.30797
G1 X198.093 Y129.727 E46.34164
G1 X197.895 Y130.662 E46.37343
G1 X197.622 Y131.57 E46.40497
G1 X197.271 Y132.465 E46.43694
G1 X196.891 Y133.24 E46.46565
G1 X196.398 Y134.077 E46.49796
G1 X195.848 Y134.853 E46.52959
G1 X195.251 Y135.559 E46.56034
G1 X194.521 Y136.291 E46.59473
G1 X193.793 Y136.904 E46.62638
G1 X193.019 Y137.456 E46.658
G1 X192.267 Y137.903 E46.6871
G1 X191.343 Y138.356 E46.72133
G1 X190.531 Y138.672 E46.75031
G1 X189.532 Y138.973 E46.78501
G1 X188.661 Y139.15 E46.81457
G1 X187.678 Y139.271 E46.84751
G1 X186.806 Y139.311 E46.87654
G0 F3600 X186.76 Y138.912
G1 F1800 X60.219 Y138.912 E51.08532
G1 X59.295 Y138.872 E51.11608
G1 X58.451 Y138.764 E51.14438
G1 X57.554 Y138.58 E51.17483
G1 X56.657 Y138.317 E51.20592
G1 X55.809 Y137.987 E51.23619
G1 X54.988 Y137.587 E51.26656
G1 X54.197 Y137.12 E51.29711
G1 X53.406 Y136.557 E51.32941
G1 X52.721 Y135.97 E51.35941
G1 X52.098 Y135.352 E51.3886
G1 X51.499 Y134.65 E51.41929
G1 X50.948 Y133.881 E51.45076
G1 X50.491 Y133.109 E51.48059
G1 X50.074 Y132.254 E51.51223
G1 X49.742 Y131.412 E51.54234
G1 X49.476 Y130.507 E51.57371
G1 X49.292 Y129.62 E51.60384
G1 X49.18 Y128.717 E51.6341
G1 X49.144 Y127.845 E51.66313
G1 X49.144 Y75.567 E53.40191
G1 X49.184 Y74.646 E53.43257
G1 X49.296 Y73.754 E53.46247
G1 X49.484 Y72.852 E53.49311
G1 X49.732 Y72.02 E53.52199
G1 X50.069 Y71.156 E53.55283
G1 X50.49 Y70.296 E53.58468
G1 X50.956 Y69.505 E53.61522
G1 X51.468 Y68.793 E53.64439
G1 X52.055 Y68.102 E53.67454
G1 X52.738 Y67.415 E53.70676
G1 X53.439 Y66.819 E53.73736
G1 X54.139 Y66.319 E53.76598
G1 X54.929 Y65.848 E53.79657
G1 X55.799 Y65.422 E53.82879
G1 X56.657 Y65.084 E53.85946
G1 X57.493 Y64.836 E53.88846
G1 X58.404 Y64.644 E53.91943
G1 X59.288 Y64.532 E53.94906
G1 X60.211 Y64.492 E53.97979
G1 X186.777 Y64.492 E58.18939
G1 X187.698 Y64.532 E58.22006
G1 X188.594 Y64.644 E58.25009
G1 X189.497 Y64.833 E58.28077
G1 X190.325 Y65.081 E58.30952
G1 X191.235 Y65.436 E58.34201
G1 X192.007 Y65.812 E58.37057
G1 X192.799 Y66.28 E58.40117
G1 X193.59 Y66.843 E58.43346
G1 X194.277 Y67.431 E58.46354
G1 X194.897 Y68.051 E58.4927
G1 X195.525 Y68.787 E58.52488
G1 X196.053 Y69.529 E58.55517
G1 X196.518 Y70.318 E58.58563
G1 X196.902 Y71.093 E58.6144
G1 X197.26 Y72.004 E58.64695
G1 X197.52 Y72.885 E58.6775
G1 X197.704 Y73.777 E58.7078
G1 X197.812 Y74.637 E58.73662
G1 X197.852 Y75.555 E58.76719
G1 X197.852 Y127.833 E60.50596
G1 X197.812 Y128.754 E60.53662
G1 X197.701 Y129.646 E60.56652
G1 X197.511 Y130.548 E60.59718
G1 X197.264 Y131.38 E60.62604
G1 X196.912 Y132.289 E60.65846
G1 X196.509 Y133.106 E60.68876
G1 X196.041 Y133.893 E60.71922
G1 X195.527 Y134.615 E60.74869
G1 X194.913 Y135.337 E60.78022
G1 X194.257 Y135.99 E60.811
G1 X193.559 Y136.58 E60.8414
G1 X192.859 Y137.084 E60.87009
G1 X192.064 Y137.558 E60.90088
G1 X191.198 Y137.984 E60.93298
G1 X190.341 Y138.315 E60.96353
G1 X189.452 Y138.581 E60.9944
G1 X188.592 Y138.756 E61.02358
G1 X187.66 Y138.872 E61.05482
G1 X186.76 Y138.912 E61.08479
G0 F3600 X186.76 Y139.212
G0 X187.103 Y140.388
G1 F1448.7 X187.503 Y140.484 E61.10179
G1 F1800 X189.274 Y140.483 E61.16069
G1 X190.09 Y140.451 E61.18785
G1 X190.884 Y140.362 E61.21442
G1 X191.673 Y140.214 E61.24112
G1 X192.457 Y140.004 E61.26812
G1 X193.197 Y139.747 E61.29417
G1 X193.931 Y139.426 E61.32082
G1 X194.656 Y139.042 E61.34811
G1 X195.328 Y138.621 E61.37448
G1 X195.971 Y138.147 E61.40105
G1 X196.575 Y137.628 E61.42754
G1 X197.144 Y137.059 E61.4543
G1 X197.665 Y136.452 E61.48091
G1 X198.148 Y135.804 E61.50779
G1 X198.575 Y135.126 E61.53444
G1 X198.948 Y134.421 E61.56097
G1 X199.268 Y133.683 E61.58772
G1 X199.537 Y132.925 E61.61447
G1 X199.742 Y132.152 E61.64107
G1 X199.89 Y131.372 E61.66748
G1 X199.982 Y130.571 E61.69429
G1 X200.012 Y129.734 E61.72215
G1 X200.012 Y60.512 E64.02448
G1 X46.984 Y60.512 E69.11421
G1 X46.985 Y129.752 E71.41715
G1 X47.013 Y130.562 E71.4441
G1 X47.105 Y131.355 E71.47066
G1 X47.251 Y132.139 E71.49718
G1 X47.459 Y132.92 E71.52406
G1 X47.72 Y133.668 E71.55041
G1 X48.043 Y134.405 E71.57717
G1 X48.418 Y135.12 E71.60403
G1 X48.842 Y135.791 E71.63043
G1 X49.32 Y136.442 E71.65729
G1 X49.84 Y137.043 E71.68372
G1 X50.412 Y137.619 E71.71072
G1 X51.01 Y138.137 E71.73704
G1 X51.653 Y138.61 E71.76359
G1 X52.335 Y139.038 E71.79037
G1 X53.05 Y139.418 E71.8173
G1 X53.787 Y139.741 E71.84406
G1 X54.535 Y140.005 E71.87044
G1 X55.303 Y140.209 E71.89687
G1 X56.094 Y140.358 E71.92364
G1 X56.9 Y140.451 E71.95063
G1 X57.734 Y140.484 E71.97839
G1 X59.42 Y140.482 E72.03447
G1 F1451.6 X59.82 Y140.385 E72.05144
G1 F1220.3 X60.17 Y140.391 E72.06862
G1 F1224.5 X85.557 Y140.391 E73.30985
G1 F1222.4 X110.944 Y140.39 E74.55319
G1 F1220.3 X136.331 Y140.39 E75.79864
G1 F1216.2 X161.718 Y140.389 E77.04832
G1 F1214.2 X187.105 Y140.388 E78.3001
G0 F3600 X189.289 Y140.883
G1 F1800 X190.12 Y140.85 E78.32776
G1 X190.943 Y140.758 E78.35531
G1 X191.762 Y140.604 E78.38302
G1 X192.574 Y140.387 E78.41098
G1 X193.343 Y140.12 E78.43805
G1 X194.105 Y139.787 E78.46571
G1 X194.856 Y139.389 E78.49398
G1 X195.553 Y138.952 E78.52134
G1 X196.22 Y138.461 E78.54889
G1 X196.847 Y137.922 E78.57639
G1 X197.437 Y137.331 E78.60417
G1 X197.978 Y136.702 E78.63176
G1 X198.478 Y136.03 E78.65962
G1 X198.921 Y135.326 E78.68729
G1 X199.309 Y134.594 E78.71484
G1 X199.64 Y133.829 E78.74256
G1 X199.919 Y133.044 E78.77027
G1 X200.132 Y132.241 E78.79791
G1 X200.286 Y131.433 E78.82526
G1 X200.381 Y130.601 E78.85312
G1 X200.412 Y129.734 E78.88197
G1 X200.412 Y60.112 E81.19761
G1 X46.584 Y60.112 E86.31395
G1 X46.584 Y129.746 E88.62998
G1 X46.614 Y130.592 E88.65814
G1 X46.709 Y131.414 E88.68566
G1 X46.861 Y132.227 E88.71317
G1 X47.077 Y133.037 E88.74105
G1 X47.348 Y133.814 E88.76842
G1 X47.682 Y134.578 E88.79616
G1 X48.071 Y135.32 E88.82402
G1 X48.512 Y136.016 E88.85143
G1 X49.007 Y136.692 E88.87929
G1 X49.546 Y137.315 E88.90669
G1 X50.139 Y137.912 E88.93468
G1 X50.761 Y138.45 E88.96203
G1 X51.428 Y138.941 E88.98958
G1 X52.134 Y139.385 E89.01732
G1 X52.876 Y139.778 E89.04525
G1 X53.64 Y140.113 E89.07299
G1 X54.416 Y140.388 E89.10037
G1 X55.214 Y140.599 E89.12783
G1 X56.034 Y140.754 E89.15558
G1 X56.869 Y140.85 E89.18354
G1 X57.734 Y140.884 E89.21233
G1 X189.289 Y140.883 E93.58787
G0 F3600 X189.305 Y141.283
G1 F1800 X190.15 Y141.249 E93.616
G1 X191.002 Y141.154 E93.64451
G1 X191.851 Y140.994 E93.67324
G1 X192.692 Y140.77 E93.70219
G1 X193.489 Y140.493 E93.73026
G1 X194.279 Y140.147 E93.75894
G1 X195.056 Y139.736 E93.78818
G1 X195.778 Y139.283 E93.81653
G1 X196.469 Y138.774 E93.84507
G1 X197.119 Y138.215 E93.87358
G1 X197.731 Y137.603 E93.90237
G1 X198.291 Y136.952 E93.93093
G1 X198.808 Y136.256 E93.95977
G1 X199.268 Y135.527 E93.98844
G1 X199.67 Y134.767 E94.01704
G1 X200.013 Y133.976 E94.04571
G1 X200.302 Y133.162 E94.07444
G1 X200.522 Y132.33 E94.10306
G1 X200.682 Y131.493 E94.13141
G1 X200.781 Y130.631 E94.16027
G1 X200.812 Y129.734 E94.19012
G1 X200.812 Y59.712 E96.51906
G1 X46.184 Y59.712 E101.66201
G1 X46.184 Y129.753 E103.99158
G1 X46.215 Y130.622 E104.0205
G1 X46.314 Y131.474 E104.04903
G1 X46.47 Y132.315 E104.07748
G1 X46.694 Y133.155 E104.10639
G1 X46.975 Y133.96 E104.13475
G1 X47.322 Y134.751 E104.16348
G1 X47.724 Y135.52 E104.19234
G1 X48.181 Y136.241 E104.22073
G1 X48.694 Y136.941 E104.2496
G1 X49.253 Y137.587 E104.27801
G1 X49.866 Y138.205 E104.30696
G1 X50.511 Y138.762 E104.33531
G1 X51.203 Y139.272 E104.3639
G1 X51.934 Y139.732 E104.39263
G1 X52.702 Y140.139 E104.42154
G1 X53.493 Y140.485 E104.45025
G1 X54.298 Y140.77 E104.47865
G1 X55.125 Y140.99 E104.50712
G1 X55.974 Y141.15 E104.53585
G1 X56.838 Y141.249 E104.56478
G1 X57.708 Y141.284 E104.59374
G1 X189.305 Y141.283 E108.97067
G0 F3600 X189.288 Y141.684
;TYPE:WALL-OUTER
G1 F1800 X190.18 Y141.648 E109.00036
G1 X191.062 Y141.55 E109.02988
G1 X191.939 Y141.384 E109.05957
G1 X192.809 Y141.152 E109.08951
G1 X193.635 Y140.865 E109.1186
G1 X194.453 Y140.507 E109.1483
G1 X195.256 Y140.082 E109.17851
G1 X196.003 Y139.614 E109.20783
G1 X196.719 Y139.087 E109.2374
G1 X197.391 Y138.509 E109.26688
G1 X198.025 Y137.875 E109.2967
G1 X198.603 Y137.202 E109.32621
G1 X199.138 Y136.482 E109.35605
