;FLAVOR:Marlin
;TIME:3662
;Filament used: 3.04134m
;Layer height: 0.15
;MINX:85.029
;MINY:74.028
;MINZ:0.2
;MAXX:161.579
;MAXY:135.972
;MAXZ:23
;TARGET_MACHINE.NAME:Prusa i3 Mk3/Mk3s
;Generated with Cura_SteamEngine 5.7.1
M82 ;absolute extrusion mode
G21 ; set units to millimeters
G90 ; use absolute positioning
M82 ; absolute extrusion mode
M104 S200 ; set extruder temp
M140 S60 ; set bed temp
M190 S60 ; wait for bed temp
M109 S200 ; wait for extruder temp
G28 W ; home all without mesh bed level
G80 ; mesh bed leveling
G92 E0.0 ; reset extruder distance position
G1 Y-3.0 F1000.0 ; go outside print area
G1 X60.0 E9.0 F1000.0 ; intro line
G1 X100.0 E21.5 F1000.0 ; intro line
G92 E0.0 ; reset extruder distance position
G92 E0
G92 E0
G1 F2100 E-0.8
;LAYER_COUNT:153
;LAYER:0
M107
G0 F3600 X92.63 Y84.763 Z0.2
;TYPE:SKIRT
G1 F2100 E0
G1 F1800 X96.416 Y81.071 E0.17588
G1 X99.991 Y78.549 E0.3214
G1 X106.044 Y75.719 E0.54364
G1 X110.042 Y74.655 E0.68124
G1 X116.037 Y74.028 E0.88173
G1 X121.616 Y74.601 E1.06826
G1 X126.89 Y76.068 E1.25033
G1 X131.668 Y78.304 E1.42579
G1 X136.172 Y81.571 E1.61085
G1 X139.754 Y85.208 E1.78064
G1 X142.838 Y89.576 E1.95848
G1 X143.922 Y91.924 E2.0445
G1 X151.736 Y91.961 E2.30439
G1 X153.285 Y92.198 E2.35651
G1 X155.101 Y92.736 E2.41951
G1 X157.091 Y93.751 E2.49381
G1 X158.406 Y94.661 E2.547
G1 X160.12 Y96.631 E2.63385
G1 X161.173 Y98.861 E2.71587
G1 X161.579 Y100.948 E2.78659
G1 X161.573 Y109.907 E3.08456
G1 X161.019 Y112.32 E3.16691
G1 X159.592 Y114.775 E3.26135
G1 X157.684 Y116.479 E3.34644
G1 X156.451 Y117.288 E3.39549
G1 X155.032 Y118.007 E3.4484
G1 X152.291 Y118.647 E3.54201
G1 X151.748 Y118.707 E3.56019
G1 X143.608 Y118.739 E3.83092
G1 X142.74 Y120.511 E3.89655
G1 X139.549 Y125.076 E4.0818
G1 X135.587 Y128.929 E4.26562
G1 X132.012 Y131.451 E4.41113
G1 X125.959 Y134.281 E4.63337
G1 X121.961 Y135.345 E4.77097
G1 X115.967 Y135.972 E4.97142
G1 X110.387 Y135.399 E5.15799
G1 X105.116 Y133.938 E5.33992
G1 X100.377 Y131.728 E5.51383
G1 X95.825 Y128.422 E5.70095
G1 X92.073 Y124.584 E5.87947
G1 X89.55 Y121.01 E6.02497
G1 X86.72 Y114.956 E6.24724
G1 X85.656 Y110.96 E6.38478
G1 X85.029 Y104.967 E6.5852
G1 X85.602 Y99.385 E6.77183
G1 X87.063 Y94.116 E6.95369
G1 X89.277 Y89.366 E7.128
G1 X92.63 Y84.763 E7.3174
G0 F3600 X92.91 Y85.049
G1 F1800 X96.647 Y81.398 E7.49117
G1 X100.222 Y78.876 E7.63668
G1 X106.147 Y76.106 E7.85422
G1 X110.145 Y75.042 E7.99183
G1 X116.037 Y74.43 E8.18885
G1 X121.575 Y74.999 E8.37401
G1 X126.72 Y76.43 E8.55163
G1 X131.462 Y78.649 E8.72577
G1 X135.887 Y81.852 E8.90745
G1 X139.427 Y85.439 E9.07507
G1 X142.491 Y89.779 E9.25177
G1 X143.666 Y92.323 E9.34497
G1 X151.734 Y92.361 E9.61332
G1 X153.171 Y92.582 E9.66168
G1 X154.953 Y93.11 E9.72349
G1 X156.863 Y94.08 E9.79474
G1 X158.136 Y94.961 E9.84623
G1 X159.782 Y96.852 E9.92962
G1 X160.79 Y98.987 E10.00814
G1 X161.179 Y100.988 E10.07594
G1 X161.173 Y109.86 E10.37103
G1 X160.642 Y112.172 E10.44993
G1 X159.278 Y114.519 E10.54021
G1 X157.464 Y116.145 E10.62124
G1 X156.27 Y116.931 E10.66878
G1 X154.891 Y117.63 E10.7202
G1 X152.247 Y118.249 E10.81052
G1 X151.704 Y118.309 E10.82869
G1 X143.357 Y118.34 E11.10632
G1 X142.412 Y120.282 E11.17815
G1 X139.244 Y124.815 E11.36209
G1 X135.356 Y128.602 E11.54261
G1 X131.781 Y131.124 E11.68812
G1 X125.856 Y133.894 E11.90566
G1 X121.858 Y134.958 E12.04326
G1 X115.967 Y135.57 E12.24025
G1 X110.428 Y135.001 E12.42545
G1 X105.285 Y133.575 E12.60296
G1 X100.58 Y131.381 E12.77563
G1 X96.111 Y128.142 E12.9592
G1 X92.4 Y124.353 E13.1356
G1 X89.877 Y120.779 E13.28111
G1 X87.107 Y114.853 E13.49868
G1 X86.043 Y110.857 E13.63621
G1 X85.431 Y104.967 E13.83317
G1 X86 Y99.426 E14.01844
G1 X87.426 Y94.285 E14.19588
G1 X89.624 Y89.57 E14.36891
G1 X92.91 Y85.049 E14.5548
G0 F3600 X93.234 Y85.284
G1 F1800 X96.878 Y81.725 E14.72421
G1 X100.453 Y79.203 E14.86973
G1 X106.25 Y76.493 E15.08256
G1 X110.248 Y75.429 E15.22017
G1 X116.037 Y74.832 E15.41373
G1 X121.534 Y75.397 E15.59753
G1 X126.55 Y76.792 E15.77069
G1 X131.259 Y78.996 E15.94362
G1 X135.603 Y82.133 E16.12184
G1 X139.1 Y85.67 E16.28727
G1 X142.144 Y89.982 E16.46282
G1 X143.41 Y92.722 E16.56321
G1 X151.674 Y92.757 E16.83807
G1 X153.057 Y92.966 E16.8846
G1 X154.839 Y93.494 E16.94641
G1 X156.635 Y94.409 E17.01345
G1 X157.866 Y95.261 E17.06325
G1 X159.444 Y97.073 E17.14316
G1 X160.407 Y99.113 E17.21819
G1 X160.779 Y101.028 E17.28308
G1 X160.773 Y109.814 E17.5753
G1 X160.266 Y112.023 E17.65068
G1 X158.964 Y114.263 E17.73686
G1 X157.197 Y115.847 E17.81579
G1 X156.089 Y116.574 E17.85986
G1 X154.751 Y117.252 E17.90975
G1 X152.203 Y117.851 E17.99681
G1 X151.66 Y117.911 E18.01498
G1 X143.106 Y117.941 E18.29949
G1 X142.052 Y120.107 E18.37961
G1 X138.936 Y124.557 E18.56029
G1 X135.125 Y128.275 E18.73738
G1 X131.55 Y130.797 E18.88289
G1 X125.753 Y133.507 E19.09573
G1 X121.755 Y134.571 E19.23333
G1 X115.967 Y135.168 E19.42686
G1 X110.469 Y134.603 E19.61069
G1 X105.454 Y133.212 E19.78378
G1 X100.78 Y131.033 E19.95531
G1 X96.397 Y127.862 E20.13524
G1 X92.727 Y124.122 E20.30952
G1 X90.204 Y120.548 E20.45502
G1 X87.494 Y114.75 E20.66789
G1 X86.43 Y110.754 E20.80543
G1 X85.833 Y104.967 E20.99893
G1 X86.398 Y99.467 E21.18282
G1 X87.789 Y94.454 E21.35585
G1 X89.971 Y89.773 E21.52763
G1 X93.234 Y85.284 E21.71221
G0 F3600 X93.558 Y85.519
G1 F1800 X97.109 Y82.052 E21.87727
G1 X100.684 Y79.53 E22.02279
G1 X106.353 Y76.88 E22.23092
G1 X110.351 Y75.816 E22.36853
G1 X116.037 Y75.234 E22.55863
G1 X121.493 Y75.795 E22.74106
G1 X126.38 Y77.154 E22.90977
G1 X131.057 Y79.343 E23.08152
G1 X135.319 Y82.415 E23.25626
G1 X138.773 Y85.901 E23.41948
G1 X141.797 Y90.185 E23.59389
G1 X143.154 Y93.121 E23.70146
G1 X151.615 Y93.153 E23.98288
G1 X152.943 Y93.35 E24.02753
G1 X154.725 Y93.878 E24.08935
G1 X156.407 Y94.738 E24.15218
G1 X157.596 Y95.561 E24.20028
G1 X159.106 Y97.294 E24.27673
G1 X160.024 Y99.239 E24.34826
G1 X160.379 Y101.068 E24.41023
G1 X160.373 Y109.767 E24.69956
G1 X159.889 Y111.875 E24.7715
G1 X158.65 Y114.008 E24.85354
G1 X156.977 Y115.513 E24.92839
G1 X155.908 Y116.217 E24.97096
G1 X154.611 Y116.874 E25.01932
G1 X152.159 Y117.453 E25.10311
G1 X151.616 Y117.513 E25.12128
G1 X142.855 Y117.542 E25.41268
G1 X141.724 Y119.878 E25.499
G1 X138.63 Y124.296 E25.67839
G1 X134.894 Y127.948 E25.85216
G1 X131.319 Y130.47 E25.99768
G1 X125.65 Y133.12 E26.20581
G1 X121.652 Y134.184 E26.34341
G1 X115.967 Y134.766 E26.53349
G1 X110.51 Y134.205 E26.71594
G1 X105.623 Y132.849 E26.88463
G1 X100.98 Y130.685 E27.055
G1 X96.682 Y127.582 E27.23132
G1 X93.054 Y123.891 E27.40345
G1 X90.531 Y120.317 E27.54896
G1 X87.881 Y114.647 E27.75713
G1 X86.817 Y110.651 E27.89467
G1 X86.235 Y104.967 E28.0847
G1 X86.796 Y99.508 E28.26723
G1 X88.152 Y94.623 E28.43585
G1 X90.318 Y89.976 E28.60637
G1 X93.558 Y85.519 E28.78964
G0 F3600 X93.838 Y85.805
G1 F1800 X97.34 Y82.379 E28.95259
G1 X100.915 Y79.857 E29.0981
G1 X106.456 Y77.267 E29.30154
G1 X110.454 Y76.203 E29.43914
G1 X116.036 Y75.636 E29.62575
G1 X121.452 Y76.193 E29.80684
G1 X126.211 Y77.516 E29.97113
G1 X130.823 Y79.668 E30.1404
G1 X135.035 Y82.697 E30.31295
G1 X138.446 Y86.132 E30.47396
G1 X141.45 Y90.388 E30.64723
G1 X142.898 Y93.52 E30.76199
G1 X151.557 Y93.549 E31.04999
G1 X152.829 Y93.734 E31.09275
G1 X154.577 Y94.252 E31.15338
G1 X156.179 Y95.067 E31.21317
G1 X157.326 Y95.861 E31.25956
G1 X158.768 Y97.515 E31.33255
G1 X159.641 Y99.365 E31.40058
G1 X159.979 Y101.108 E31.45964
G1 X159.973 Y109.72 E31.74607
G1 X159.512 Y111.727 E31.81457
G1 X158.335 Y113.753 E31.8925
G1 X156.756 Y115.179 E31.96326
G1 X155.727 Y115.86 E32.0043
G1 X154.471 Y116.496 E32.05113
G1 X152.115 Y117.055 E32.13166
G1 X151.572 Y117.115 E32.14983
G1 X142.604 Y117.143 E32.44811
G1 X141.396 Y119.649 E32.54064
G1 X138.324 Y124.035 E32.71874
G1 X134.663 Y127.621 E32.88919
G1 X131.088 Y130.143 E33.0347
G1 X125.547 Y132.733 E33.23814
G1 X121.549 Y133.797 E33.37574
G1 X115.968 Y134.364 E33.56232
G1 X110.551 Y133.807 E33.74344
G1 X105.792 Y132.486 E33.90771
G1 X101.184 Y130.338 E34.07681
G1 X96.967 Y127.301 E34.24965
G1 X93.381 Y123.66 E34.41963
G1 X90.858 Y120.086 E34.56513
G1 X88.268 Y114.544 E34.7686
G1 X87.204 Y110.548 E34.90613
G1 X86.637 Y104.968 E35.09268
G1 X87.194 Y99.549 E35.27387
G1 X88.515 Y94.792 E35.43807
G1 X90.665 Y90.179 E35.60735
G1 X93.838 Y85.805 E35.78708
G0 F3600 X94.118 Y86.091
G1 F1800 X97.571 Y82.706 E35.9479
G1 X101.146 Y80.184 E36.09342
G1 X106.559 Y77.654 E36.29215
G1 X110.557 Y76.59 E36.42975
G1 X116.035 Y76.038 E36.61287
G1 X121.411 Y76.591 E36.79262
G1 X126.042 Y77.878 E36.95249
G1 X130.618 Y80.013 E37.12044
G1 X134.751 Y82.979 E37.28964
G1 X138.119 Y86.363 E37.44843
G1 X141.103 Y90.591 E37.62055
G1 X142.642 Y93.919 E37.74251
G1 X151.501 Y93.945 E38.03716
G1 X152.715 Y94.118 E38.07794
G1 X154.463 Y94.636 E38.13858
G1 X155.951 Y95.396 E38.19415
G1 X157.056 Y96.161 E38.23886
G1 X158.43 Y97.737 E38.3084
G1 X159.258 Y99.491 E38.37291
G1 X159.579 Y101.148 E38.42905
G1 X159.573 Y109.674 E38.71262
G1 X159.136 Y111.578 E38.7776
G1 X158.02 Y113.498 E38.85146
G1 X156.535 Y114.845 E38.91814
G1 X155.506 Y115.526 E38.95918
G1 X154.333 Y116.118 E39.00288
G1 X152.071 Y116.657 E39.08023
G1 X151.528 Y116.717 E39.0984
G1 X142.351 Y116.744 E39.40362
G1 X141.068 Y119.42 E39.50233
G1 X138.016 Y123.777 E39.67926
G1 X134.432 Y127.294 E39.84627
G1 X130.857 Y129.816 E39.99179
G1 X125.444 Y132.346 E40.19052
G1 X121.446 Y133.41 E40.32812
G1 X115.969 Y133.962 E40.51121
G1 X110.592 Y133.409 E40.69099
G1 X105.961 Y132.123 E40.85085
G1 X101.385 Y129.99 E41.01877
G1 X97.252 Y127.02 E41.18805
G1 X93.708 Y123.429 E41.35585
G1 X91.185 Y119.855 E41.50136
G1 X88.655 Y114.441 E41.70012
G1 X87.591 Y110.445 E41.83766
G1 X87.039 Y104.969 E42.02072
G1 X87.592 Y99.59 E42.20057
G1 X88.878 Y94.961 E42.36036
G1 X91.012 Y90.382 E42.52838
G1 X94.118 Y86.091 E42.70457
G0 F3600 X94.398 Y86.376
G1 F1800 X97.802 Y83.033 E42.86325
G1 X101.377 Y80.511 E43.00877
G1 X106.662 Y78.041 E43.2028
G1 X110.66 Y76.977 E43.3404
G1 X116.034 Y76.44 E43.52003
G1 X121.37 Y76.989 E43.69844
G1 X125.873 Y78.24 E43.85389
G1 X130.413 Y80.358 E44.02051
G1 X134.468 Y83.262 E44.1864
G1 X137.792 Y86.594 E44.34294
G1 X140.756 Y90.794 E44.51391
G1 X142.386 Y94.318 E44.64305
G1 X151.446 Y94.341 E44.94439
G1 X152.601 Y94.502 E44.98318
G1 X154.315 Y95.01 E45.04264
G1 X155.723 Y95.725 E45.09516
G1 X156.786 Y96.461 E45.13816
G1 X158.092 Y97.959 E45.20426
G1 X158.875 Y99.617 E45.26525
G1 X159.179 Y101.188 E45.31847
G1 X159.173 Y109.627 E45.59915
G1 X158.759 Y111.43 E45.66068
G1 X157.705 Y113.244 E45.73046
G1 X156.314 Y114.511 E45.79304
G1 X155.285 Y115.192 E45.83408
G1 X154.195 Y115.74 E45.87466
G1 X152.027 Y116.259 E45.9488
G1 X151.484 Y116.319 E45.96697
G1 X142.098 Y116.345 E46.27915
G1 X140.74 Y119.191 E46.38404
G1 X137.708 Y123.52 E46.55982
G1 X134.201 Y126.967 E46.72338
G1 X130.626 Y129.489 E46.86889
G1 X125.341 Y131.959 E47.06292
G1 X121.343 Y133.023 E47.20052
G1 X115.97 Y133.56 E47.38012
G1 X110.633 Y133.011 E47.55857
G1 X106.13 Y131.76 E47.71401
G1 X101.586 Y129.642 E47.88075
G1 X97.536 Y126.739 E48.04649
G1 X94.035 Y123.198 E48.21211
G1 X91.512 Y119.624 E48.35762
G1 X89.042 Y114.338 E48.55168
G1 X87.978 Y110.342 E48.68921
G1 X87.441 Y104.97 E48.86878
G1 X87.99 Y99.631 E49.04729
G1 X89.241 Y95.13 E49.20267
G1 X91.36 Y90.582 E49.36955
G1 X94.398 Y86.376 E49.54212
G0 F3600 X94.679 Y86.661
G1 F1800 X98.033 Y83.36 E49.69864
G1 X101.608 Y80.838 E49.84415
G1 X106.765 Y78.428 E50.03348
G1 X110.763 Y77.364 E50.17108
G1 X116.032 Y76.842 E50.34719
G1 X121.329 Y77.387 E50.5243
G1 X125.704 Y78.603 E50.67533
G1 X130.213 Y80.706 E50.84081
G1 X134.235 Y83.587 E51.00536
G1 X137.465 Y86.825 E51.15747
G1 X140.409 Y90.997 E51.3273
G1 X142.13 Y94.717 E51.46363
G1 X151.392 Y94.737 E51.77169
G1 X152.487 Y94.886 E51.80844
G1 X154.201 Y95.394 E51.8679
G1 X155.495 Y96.054 E51.91622
G1 X156.516 Y96.761 E51.95752
G1 X157.754 Y98.181 E52.02018
G1 X158.492 Y99.743 E52.07764
G1 X158.779 Y101.228 E52.12794
G1 X158.773 Y109.58 E52.40573
G1 X158.382 Y111.282 E52.46382
G1 X157.39 Y112.99 E52.52951
G1 X156.093 Y114.177 E52.58799
G1 X155.064 Y114.858 E52.62903
G1 X154.056 Y115.362 E52.66651
G1 X151.983 Y115.861 E52.73743
G1 X151.44 Y115.921 E52.7556
G1 X141.845 Y115.946 E53.07473
G1 X140.412 Y118.962 E53.18579
G1 X137.402 Y123.26 E53.36031
G1 X133.97 Y126.64 E53.52053
G1 X130.395 Y129.162 E53.66604
G1 X125.238 Y131.572 E53.85537
G1 X121.24 Y132.636 E53.99297
G1 X115.972 Y133.158 E54.16904
G1 X110.674 Y132.613 E54.34619
G1 X106.299 Y131.397 E54.49722
G1 X101.786 Y129.294 E54.66282
G1 X97.82 Y126.457 E54.825
G1 X94.362 Y122.967 E54.98841
G1 X91.839 Y119.393 E55.13392
G1 X89.429 Y114.235 E55.32327
G1 X88.365 Y110.239 E55.46081
G1 X87.843 Y104.972 E55.63685
G1 X88.388 Y99.672 E55.81406
G1 X89.604 Y95.299 E55.96502
G1 X91.707 Y90.786 E56.13062
G1 X94.679 Y86.661 E56.29972
G0 F3600 X94.96 Y86.946
G1 F1800 X98.264 Y83.687 E56.45408
G1 X101.839 Y81.165 E56.59959
G1 X106.868 Y78.815 E56.78422
G1 X110.866 Y77.751 E56.92182
G1 X116.03 Y77.244 E57.0944
G1 X121.222 Y77.773 E57.26798
G1 X125.535 Y78.966 E57.41682
G1 X130.013 Y81.054 E57.58116
G1 X134.002 Y83.912 E57.74437
G1 X137.138 Y87.056 E57.89206
G1 X140.062 Y91.2 E58.06075
G1 X141.874 Y95.116 E58.20427
G1 X151.391 Y95.137 E58.5208
G1 X152.373 Y95.27 E58.55376
G1 X154.087 Y95.778 E58.61322
G1 X155.267 Y96.383 E58.65733
G1 X156.249 Y97.063 E58.69705
G1 X157.415 Y98.4 E58.75606
G1 X158.109 Y99.869 E58.8101
G1 X158.379 Y101.268 E58.85749
G1 X158.373 Y109.534 E59.13241
G1 X158.006 Y111.133 E59.18698
G1 X157.074 Y112.737 E59.24868
G1 X155.872 Y113.844 E59.30303
G1 X154.885 Y114.5 E59.34245
G1 X153.918 Y114.984 E59.37841
G1 X151.939 Y115.463 E59.44614
G1 X151.396 Y115.523 E59.46431
G1 X141.591 Y115.547 E59.79042
G1 X140.084 Y118.733 E59.90765
G1 X137.096 Y123 E60.0809
G1 X133.739 Y126.313 E60.23778
G1 X130.164 Y128.835 E60.38329
G1 X125.135 Y131.185 E60.56792
G1 X121.137 Y132.249 E60.70552
G1 X115.974 Y132.756 E60.87807
G1 X110.781 Y132.227 E61.05168
G1 X106.468 Y131.034 E61.20052
G1 X101.987 Y128.946 E61.36494
G1 X98.104 Y126.175 E61.52361
G1 X94.689 Y122.736 E61.6848
G1 X92.166 Y119.162 E61.83031
G1 X89.816 Y114.132 E62.01497
G1 X88.752 Y110.136 E62.1525
G1 X88.245 Y104.974 E62.32502
G1 X88.774 Y99.779 E62.4987
G1 X89.967 Y95.468 E62.64747
G1 X92.055 Y90.987 E62.8119
G1 X94.96 Y86.946 E62.97743
G0 F3600 X95.241 Y87.23
G1 F1800 X98.495 Y84.014 E63.12959
G1 X102.07 Y81.492 E63.27511
G1 X106.971 Y79.202 E63.45503
G1 X110.969 Y78.138 E63.59264
G1 X116.029 Y77.646 E63.76173
G1 X121.116 Y78.159 E63.93178
G1 X125.366 Y79.329 E64.07839
G1 X129.813 Y81.402 E64.24158
G1 X133.769 Y84.237 E64.40346
G1 X136.811 Y87.287 E64.54673
G1 X139.715 Y91.403 E64.71427
G1 X141.618 Y95.516 E64.865
G1 X151.339 Y95.534 E65.18833
G1 X152.259 Y95.654 E65.21919
G1 X153.973 Y96.162 E65.27864
G1 X155.039 Y96.712 E65.31854
G1 X155.982 Y97.365 E65.35669
G1 X157.076 Y98.619 E65.41204
G1 X157.726 Y99.995 E65.46266
G1 X157.979 Y101.308 E65.50713
G1 X157.973 Y109.487 E65.77916
G1 X157.629 Y110.985 E65.83028
G1 X156.758 Y112.485 E65.88798
G1 X155.65 Y113.511 E65.9382
G1 X154.706 Y114.142 E65.97597
G1 X153.78 Y114.605 E66.0104
G1 X151.895 Y115.065 E66.07494
G1 X151.352 Y115.125 E66.09311
G1 X141.337 Y115.148 E66.42621
G1 X139.756 Y118.504 E66.54959
G1 X136.788 Y122.743 E66.72171
G1 X133.508 Y125.986 E66.87512
G1 X129.933 Y128.508 E67.02064
G1 X125.032 Y130.798 E67.20056
G1 X121.034 Y131.862 E67.33816
G1 X115.975 Y132.354 E67.50722
G1 X110.887 Y131.841 E67.67731
G1 X106.637 Y130.671 E67.82392
G1 X102.188 Y128.598 E67.98717
G1 X98.388 Y125.893 E68.14231
G1 X95.016 Y122.505 E68.30129
G1 X92.493 Y118.931 E68.4468
G1 X90.203 Y114.029 E68.62676
G1 X89.139 Y110.033 E68.76429
G1 X88.647 Y104.975 E68.93332
G1 X89.16 Y99.885 E69.10347
G1 X90.33 Y95.637 E69.25002
G1 X92.403 Y91.188 E69.41327
G1 X95.241 Y87.23 E69.57526
G0 F3600 X95.523 Y87.514
G1 F1800 X98.726 Y84.341 E69.72521
G1 X102.301 Y81.819 E69.87073
G1 X107.074 Y79.589 E70.04595
G1 X111.072 Y78.525 E70.18355
G1 X116.027 Y78.048 E70.34912
G1 X121.01 Y78.545 E70.51568
G1 X125.197 Y79.692 E70.66007
